;FLAVOR:Marlin
;TIME:3906
;Filament used: 2.31156m
;Layer height: 0.2
;MINX:23.949
;MINY:43.949
;MINZ:0.24
;MAXX:96.05
;MAXY:96.05
;MAXZ:17.09
;Generated with Cura_SteamEngine 4.8.0
M104 S200
M105
M109 S200
M82 ;absolute extrusion mode
; -- START GCODE --
G21                     ;set units to millimetres
G90                     ;set to absolute positioning
M106 S0                 ;set fan speed to zero (turned off)
G28                     ;home all axis
G92 E0                  ;zero the extruded length
G1 Z1 F1000             ;move up slightly
G1 Y60.0 Z0 E9.0 F1000.0;intro line
G1 Y100.0 E21.5 F1000.0 ;continue line
G92 E0                  ;zero the extruded length again
; -- end of START GCODE --
G92 E0
G92 E0
G1 F2700 E-5
;LAYER_COUNT:80
;LAYER:-6
M107
G0 F7200 X31.073 Y46.334 Z0.24
;TYPE:SUPPORT-INTERFACE
G1 F2700 E0
G1 F675 X31.199 Y46.258 E0.01175
G1 X31.993 Y45.812 E0.08444
G1 X32.143 Y45.734 E0.09794
G1 X32.958 Y45.351 E0.16982
G1 X33.101 Y45.291 E0.1822
G1 X33.96 Y44.962 E0.25562
G1 X34.11 Y44.91 E0.2683
G1 X34.96 Y44.655 E0.33914
G1 X35.133 Y44.608 E0.35345
G1 X36.028 Y44.408 E0.42665
G1 X36.158 Y44.385 E0.43719
G1 X37.063 Y44.251 E0.51022
G1 X37.232 Y44.233 E0.52378
G1 X38.121 Y44.167 E0.59494
G1 X38.305 Y44.158 E0.60965
G1 X38.81 Y44.15 E0.64996
G1 X81.253 Y44.151 E4.03795
G1 X82.254 Y44.187 E4.1179
G1 X82.377 Y44.196 E4.12775
G1 X83.294 Y44.298 E4.2014
G1 X83.469 Y44.323 E4.21551
G1 X84.358 Y44.487 E4.28767
G1 X84.481 Y44.515 E4.29774
G1 X85.375 Y44.749 E4.37151
G1 X85.538 Y44.798 E4.38509
G1 X86.38 Y45.084 E4.45608
G1 X86.546 Y45.148 E4.47028
G1 X87.349 Y45.489 E4.53992
G1 X87.538 Y45.577 E4.55656
G1 X88.332 Y45.985 E4.62782
G1 X88.449 Y46.052 E4.63858
G1 X89.228 Y46.526 E4.71137
G1 X89.379 Y46.626 E4.72583
G1 X90.093 Y47.137 E4.79592
G1 X90.241 Y47.25 E4.81078
G1 X90.932 Y47.826 E4.88259
G1 X91.045 Y47.927 E4.89469
G1 X91.694 Y48.552 E4.96661
G1 X91.814 Y48.677 E4.98044
G1 X92.417 Y49.348 E5.05245
G1 X92.513 Y49.464 E5.06447
G1 X93.072 Y50.188 E5.13749
G1 X93.166 Y50.319 E5.15036
G1 X93.666 Y51.073 E5.22258
G1 X93.742 Y51.199 E5.23432
G1 X94.188 Y51.993 E5.30702
G1 X94.266 Y52.143 E5.32051
G1 X94.649 Y52.958 E5.3924
G1 X94.709 Y53.101 E5.40477
G1 X95.038 Y53.96 E5.4782
G1 X95.09 Y54.11 E5.49087
G1 X95.345 Y54.96 E5.56171
G1 X95.392 Y55.133 E5.57602
G1 X95.59 Y56.019 E5.64849
G1 X95.615 Y56.158 E5.65976
G1 X95.748 Y57.057 E5.73231
G1 X95.766 Y57.219 E5.74532
G1 X95.833 Y58.121 E5.81752
G1 X95.842 Y58.305 E5.83222
G1 X95.85 Y58.806 E5.87222
G1 X95.85 Y81.236 E7.66268
G1 X95.814 Y82.242 E7.74304
G1 X95.804 Y82.377 E7.75384
G1 X95.702 Y83.294 E7.82749
G1 X95.677 Y83.469 E7.8416
G1 X95.515 Y84.347 E7.91287
G1 X95.485 Y84.481 E7.92383
G1 X95.254 Y85.366 E7.99684
G1 X95.202 Y85.538 E8.01119
G1 X94.926 Y86.35 E8.07965
G1 X94.846 Y86.559 E8.09751
G1 X94.511 Y87.349 E8.16601
G1 X94.43 Y87.524 E8.1814
G1 X94.015 Y88.332 E8.25391
G1 X93.948 Y88.449 E8.26467
G1 X93.474 Y89.228 E8.33746
G1 X93.374 Y89.379 E8.35192
G1 X92.863 Y90.093 E8.422
G1 X92.75 Y90.241 E8.43687
G1 X92.174 Y90.932 E8.50868
G1 X92.073 Y91.045 E8.52078
G1 X91.448 Y91.694 E8.5927
G1 X91.323 Y91.814 E8.60653
G1 X90.653 Y92.416 E8.67843
G1 X90.536 Y92.513 E8.69056
G1 X89.824 Y93.063 E8.76238
G1 X89.665 Y93.176 E8.77795
G1 X88.927 Y93.666 E8.84866
G1 X88.801 Y93.742 E8.86041
G1 X88.007 Y94.188 E8.9331
G1 X87.856 Y94.266 E8.94667
G1 X87.042 Y94.649 E9.01848
G1 X86.899 Y94.709 E9.03086
G1 X86.04 Y95.038 E9.10429
G1 X85.89 Y95.09 E9.11696
G1 X85.04 Y95.345 E9.1878
G1 X84.867 Y95.392 E9.20211
G1 X83.972 Y95.592 E9.27531
G1 X83.842 Y95.615 E9.28585
G1 X82.937 Y95.749 E9.35888
G1 X82.769 Y95.767 E9.37237
G1 X81.879 Y95.833 E9.4436
G1 X81.695 Y95.842 E9.45831
G1 X81.19 Y95.85 E9.49863
G1 X38.747 Y95.849 E12.88661
G1 X37.746 Y95.813 E12.96657
G1 X37.623 Y95.804 E12.97641
G1 X36.706 Y95.702 E13.05006
G1 X36.531 Y95.677 E13.06417
G1 X35.642 Y95.513 E13.13633
G1 X35.519 Y95.485 E13.1464
G1 X34.625 Y95.251 E13.22017
G1 X34.462 Y95.202 E13.23376
G1 X33.62 Y94.916 E13.30474
G1 X33.454 Y94.852 E13.31894
G1 X32.651 Y94.511 E13.38858
G1 X32.462 Y94.423 E13.40522
G1 X31.668 Y94.015 E13.47648
G1 X31.551 Y93.948 E13.48724
G1 X30.772 Y93.474 E13.56003
G1 X30.621 Y93.374 E13.57449
G1 X29.907 Y92.863 E13.64458
G1 X29.759 Y92.75 E13.65944
G1 X29.068 Y92.174 E13.73125
G1 X28.955 Y92.073 E13.74335
G1 X28.306 Y91.448 E13.81527
G1 X28.186 Y91.323 E13.8291
G1 X27.583 Y90.652 E13.90111
G1 X27.486 Y90.534 E13.91331
G1 X26.928 Y89.812 E13.98615
G1 X26.824 Y89.665 E14.00052
G1 X26.331 Y88.922 E14.0717
G1 X26.258 Y88.801 E14.08298
G1 X25.806 Y87.996 E14.15667
G1 X25.734 Y87.857 E14.16917
G1 X25.337 Y87.011 E14.24377
G1 X25.291 Y86.899 E14.25343
G1 X24.962 Y86.04 E14.32686
G1 X24.905 Y85.875 E14.34079
G1 X24.655 Y85.04 E14.41037
G1 X24.608 Y84.867 E14.42468
G1 X24.407 Y83.966 E14.49837
G1 X24.385 Y83.842 E14.50842
G1 X24.25 Y82.928 E14.58217
G1 X24.233 Y82.768 E14.59502
G1 X24.167 Y81.876 E14.66642
G1 X24.158 Y81.695 E14.68088
G1 X24.15 Y81.194 E14.72088
G1 X24.15 Y58.764 E16.51134
G1 X24.186 Y57.758 E16.59169
G1 X24.196 Y57.623 E16.6025
G1 X24.298 Y56.706 E16.67615
G1 X24.323 Y56.531 E16.69026
G1 X24.485 Y55.653 E16.76153
G1 X24.515 Y55.519 E16.77249
G1 X24.746 Y54.634 E16.8455
G1 X24.798 Y54.462 E16.85985
G1 X25.084 Y53.62 E16.93083
G1 X25.148 Y53.454 E16.94503
G1 X25.489 Y52.651 E17.01467
G1 X25.57 Y52.476 E17.03006
G1 X25.985 Y51.668 E17.10257
G1 X26.052 Y51.551 E17.11333
G1 X26.526 Y50.772 E17.18612
G1 X26.626 Y50.621 E17.20058
G1 X27.137 Y49.907 E17.27067
G1 X27.25 Y49.759 E17.28553
G1 X27.826 Y49.068 E17.35734
G1 X27.927 Y48.955 E17.36944
G1 X28.552 Y48.306 E17.44136
G1 X28.677 Y48.186 E17.45519
G1 X29.348 Y47.583 E17.52721
G1 X29.464 Y47.487 E17.53922
G1 X30.176 Y46.937 E17.61104
G1 X30.335 Y46.824 E17.62661
G1 X31.073 Y46.334 E17.69733
G0 F7200 X30.4 Y46.78
G1 F675 X30.4 Y93.215 E21.40397
G0 F7200 X32 Y94.185
G1 F675 X32 Y45.808 E25.26563
G0 F7200 X33.6 Y45.099
G1 F675 X33.6 Y94.908 E29.2416
G0 F7200 X35.2 Y95.401
G1 F675 X35.2 Y44.593 E33.29731
G0 F7200 X36.8 Y44.289
G1 F675 X36.8 Y95.712 E37.40212
G0 F7200 X38.4 Y95.836
G1 F675 X38.4 Y44.156 E41.52744
G0 F7200 X40 Y44.151
G1 F675 X40 Y95.849 E45.6542
G0 F7200 X41.6 Y95.849
G1 F675 X41.6 Y44.151 E49.78096
G0 F7200 X43.2 Y44.151
G1 F675 X43.2 Y95.849 E53.90771
G0 F7200 X44.8 Y95.849
G1 F675 X44.8 Y44.151 E58.03447
G0 F7200 X46.4 Y44.151
G1 F675 X46.4 Y95.849 E62.16123
G0 F7200 X48 Y95.849
G1 F675 X48 Y44.151 E66.28799
G0 F7200 X49.6 Y44.151
G1 F675 X49.6 Y95.849 E70.41475
G0 F7200 X51.2 Y95.849
G1 F675 X51.2 Y44.151 E74.5415
G0 F7200 X52.8 Y44.151
G1 F675 X52.8 Y95.849 E78.66826
G0 F7200 X54.4 Y95.849
G1 F675 X54.4 Y44.151 E82.79502
G0 F7200 X56 Y44.151
G1 F675 X56 Y95.849 E86.92178
G0 F7200 X57.6 Y95.849
G1 F675 X57.6 Y44.151 E91.04854
G0 F7200 X59.2 Y44.151
G1 F675 X59.2 Y95.849 E95.17529
G0 F7200 X60.8 Y95.849
G1 F675 X60.8 Y44.151 E99.30205
G0 F7200 X62.4 Y44.151
G1 F675 X62.4 Y95.849 E103.42881
G0 F7200 X64 Y95.849
G1 F675 X64 Y44.151 E107.55557
G0 F7200 X65.6 Y44.151
G1 F675 X65.6 Y95.849 E111.68233
G0 F7200 X67.2 Y95.849
G1 F675 X67.2 Y44.151 E115.80908
G0 F7200 X68.8 Y44.151
G1 F675 X68.8 Y95.849 E119.93584
G0 F7200 X70.4 Y95.849
G1 F675 X70.4 Y44.151 E124.0626
G0 F7200 X72 Y44.151
G1 F675 X72 Y95.849 E128.18936
G0 F7200 X73.6 Y95.849
G1 F675 X73.6 Y44.151 E132.31611
G0 F7200 X75.2 Y44.151
G1 F675 X75.2 Y95.849 E136.44287
G0 F7200 X76.8 Y95.849
G1 F675 X76.8 Y44.151 E140.56963
G0 F7200 X78.4 Y44.151
G1 F675 X78.4 Y95.849 E144.69639
G0 F7200 X80 Y95.849
G1 F675 X80 Y44.151 E148.82315
G0 F7200 X81.6 Y44.164
G1 F675 X81.6 Y95.844 E152.94847
G0 F7200 X83.2 Y95.711
G1 F675 X83.2 Y44.288 E157.05327
G0 F7200 X84.8 Y44.599
G1 F675 X84.8 Y95.407 E161.10899
G0 F7200 X86.4 Y94.901
G1 F675 X86.4 Y45.092 E165.08496
G0 F7200 X88 Y45.815
G1 F675 X88 Y94.192 E168.94662
G0 F7200 X89.6 Y93.22
G1 F675 X89.6 Y46.785 E172.65326
G0 F7200 X91.2 Y48.077
G1 F675 X91.2 Y91.925 E176.1534
G0 F7200 X92.8 Y90.176
G1 F675 X92.8 Y49.836 E179.37351
G0 F7200 X94.4 Y52.429
G1 F675 X94.4 Y87.583 E182.17966
G0 F7200 X28.8 Y91.923
G1 F675 X28.8 Y48.075 E185.67979
G0 F7200 X27.2 Y49.824
G1 F675 X27.2 Y90.163 E188.89983
G0 F7200 X25.6 Y87.571
G1 F675 X25.6 Y52.417 E191.70597
G0 F600 X25.6 Y52.417 Z0.54
G0 F7200 X26.257 Y88.799
;TIME_ELAPSED:218.683603
;LAYER:-5
;TYPE:SUPPORT
G1 F675 X26.331 Y88.921 E191.72021
G1 X26.824 Y89.664 E191.80918
G1 X26.928 Y89.811 E191.82715
G1 X27.485 Y90.533 E191.91814
G1 X27.582 Y90.651 E191.93338
G1 X28.185 Y91.322 E192.02339
G1 X28.305 Y91.447 E192.04068
G1 X28.954 Y92.072 E192.13059
G1 X29.068 Y92.173 E192.14578
G1 X29.758 Y92.749 E192.23547
G1 X29.907 Y92.862 E192.25413
G1 X30.62 Y93.373 E192.34166
G1 X30.771 Y93.473 E192.35973
G1 X31.551 Y93.947 E192.4508
G1 X31.668 Y94.014 E192.46425
G1 X31.915 Y94.141 E192.49196
G1 X25.853 Y88.078 E193.34745
G1 X25.806 Y87.995 E193.35697
G1 X25.733 Y87.855 E193.37272
G1 X25.337 Y87.01 E193.46583
G1 X25.291 Y86.898 E193.47792
G1 X24.962 Y86.039 E193.5697
G1 X24.905 Y85.874 E193.58712
G1 X24.837 Y85.648 E193.61067
G1 X34.352 Y95.163 E194.95334
G1 X34.462 Y95.201 E194.96495
G1 X34.624 Y95.25 E194.98184
G1 X35.518 Y95.484 E195.07404
G1 X35.641 Y95.512 E195.08663
G1 X36.222 Y95.619 E195.14558
G1 X24.374 Y83.771 E196.81746
G1 X24.25 Y82.927 E196.90258
G1 X24.233 Y82.767 E196.91863
G1 X24.188 Y82.171 E196.97827
G1 X37.832 Y95.815 E198.90359
G1 X38.746 Y95.848 E198.99485
G1 X39.279 Y95.848 E199.04803
G1 X24.149 Y80.718 E201.18304
G1 X24.149 Y79.304 E201.32412
G1 X40.693 Y95.848 E203.65866
G1 X42.108 Y95.848 E203.79985
G1 X24.149 Y77.889 E206.33406
G1 X24.149 Y76.475 E206.47515
G1 X43.522 Y95.848 E209.20889
G1 X44.936 Y95.848 E209.34998
G1 X24.149 Y75.061 E212.28325
G1 X24.149 Y73.647 E212.42434
G1 X46.35 Y95.848 E215.55714
G1 X47.765 Y95.848 E215.69833
G1 X24.149 Y72.233 E219.03073
G1 X24.149 Y70.818 E219.17192
G1 X49.179 Y95.848 E222.70392
G1 X50.593 Y95.848 E222.84501
G1 X24.149 Y69.404 E226.57655
G1 X24.149 Y67.99 E226.71764
G1 X52.007 Y95.848 E230.6487
G1 X53.421 Y95.848 E230.78979
G1 X24.149 Y66.576 E234.92039
G1 X24.149 Y65.162 E235.06148
G1 X54.836 Y95.848 E239.39167
G1 X56.25 Y95.848 E239.53276
G1 X24.149 Y63.747 E244.06256
G1 X24.149 Y62.333 E244.20365
G1 X57.664 Y95.848 E248.93298
G1 X59.078 Y95.848 E249.07407
G1 X24.149 Y60.919 E254.00293
G1 X24.149 Y59.505 E254.14402
G1 X60.493 Y95.849 E259.27255
G1 X61.907 Y95.849 E259.41364
G1 X24.173 Y58.114 E264.73838
G1 X24.186 Y57.757 E264.77403
G1 X24.195 Y57.622 E264.78753
G1 X24.285 Y56.812 E264.86885
G1 X63.322 Y95.849 E270.37739
G1 X64.736 Y95.849 E270.51848
G1 X24.494 Y55.607 E276.19706
G1 X24.514 Y55.518 E276.20616
G1 X24.745 Y54.633 E276.29743
G1 X24.789 Y54.488 E276.31255
G1 X66.15 Y95.849 E282.14903
G1 X67.564 Y95.849 E282.29012
G1 X25.153 Y53.438 E288.27477
G1 X25.489 Y52.65 E288.36025
G1 X25.569 Y52.475 E288.37944
G1 X25.581 Y52.451 E288.38212
G1 X68.978 Y95.849 E294.50598
G1 X70.393 Y95.849 E294.64717
G1 X26.067 Y51.523 E300.90204
G1 X26.525 Y50.77 E300.98999
G1 X26.606 Y50.647 E301.00468
G1 X71.807 Y95.849 E307.3831
G1 X73.221 Y95.849 E307.52419
G1 X27.198 Y49.825 E314.0186
G1 X27.249 Y49.758 E314.02701
G1 X27.826 Y49.067 E314.11683
G1 X27.838 Y49.051 E314.11883
G1 X74.635 Y95.849 E320.72246
G1 X76.05 Y95.849 E320.86365
G1 X28.528 Y48.327 E327.56952
G1 X28.551 Y48.305 E327.57269
G1 X28.677 Y48.185 E327.59005
G1 X29.269 Y47.654 E327.6694
G1 X77.464 Y95.849 E334.47024
G1 X78.878 Y95.849 E334.61133
G1 X30.057 Y47.028 E341.5005
G1 X30.176 Y46.936 E341.51551
G1 X30.334 Y46.823 E341.53489
G1 X30.895 Y46.451 E341.60205
G1 X80.292 Y95.849 E348.57258
G1 X81.19 Y95.849 E348.66218
G1 X81.694 Y95.841 E348.71247
G0 F7200 X81.698 Y95.84
G1 F675 X31.785 Y45.927 E355.75574
G1 X31.993 Y45.811 E355.7795
G1 X32.142 Y45.733 E355.79628
G1 X32.729 Y45.457 E355.86101
G1 X83.009 Y95.737 E362.95606
G1 X83.842 Y95.614 E363.04007
G1 X83.971 Y95.59 E363.05317
G1 X84.221 Y95.535 E363.07871
G1 X33.734 Y45.048 E370.20297
G1 X33.96 Y44.961 E370.22713
G1 X34.11 Y44.909 E370.24297
G1 X34.802 Y44.701 E370.31507
G1 X85.351 Y95.25 E377.44808
G1 X85.89 Y95.089 E377.50421
G1 X86.04 Y95.037 E377.52005
G1 X86.409 Y94.895 E377.55951
G1 X35.941 Y44.426 E384.68116
G1 X36.027 Y44.407 E384.68994
G1 X36.157 Y44.384 E384.70312
G1 X37.063 Y44.25 E384.7945
G1 X37.168 Y44.239 E384.80504
G1 X87.405 Y94.476 E391.89402
G1 X87.855 Y94.265 E391.94361
G1 X88.007 Y94.187 E391.96066
G1 X88.341 Y93.998 E391.99895
G1 X38.497 Y44.154 E399.03248
G1 X38.81 Y44.148 E399.06371
G1 X39.906 Y44.149 E399.17307
G1 X89.224 Y93.466 E406.13231
G1 X89.665 Y93.175 E406.18503
G1 X89.823 Y93.062 E406.20441
G1 X90.054 Y92.883 E406.23357
G1 X41.321 Y44.149 E413.11039
G1 X42.735 Y44.149 E413.25148
G1 X90.836 Y92.25 E420.03905
G1 X91.322 Y91.813 E420.10427
G1 X91.447 Y91.692 E420.12162
G1 X91.568 Y91.568 E420.13891
G1 X44.149 Y44.149 E426.83024
G1 X45.563 Y44.149 E426.97133
G1 X92.251 Y90.837 E433.55952
G1 X92.749 Y90.24 E433.63709
G1 X92.862 Y90.093 E433.65559
G1 X92.887 Y90.059 E433.6598
G1 X46.978 Y44.149 E440.13813
G1 X48.392 Y44.149 E440.27922
G1 X93.472 Y89.229 E446.64049
G0 F7200 X93.473 Y89.227
G1 F675 X93.947 Y88.449 E446.73139
G1 X94.004 Y88.348 E446.74296
G1 X49.806 Y44.149 E452.97985
G1 X51.22 Y44.149 E453.12094
G1 X94.482 Y87.411 E459.22568
G1 X94.51 Y87.348 E459.23255
G1 X94.844 Y86.559 E459.31804
G1 X94.9 Y86.415 E459.33346
G1 X52.634 Y44.149 E465.29765
G1 X54.049 Y44.15 E465.43884
G1 X95.255 Y85.356 E471.25345
G1 X95.484 Y84.48 E471.3438
G1 X95.513 Y84.347 E471.35738
G1 X95.537 Y84.223 E471.36998
G1 X55.464 Y44.15 E477.02471
G1 X56.878 Y44.15 E477.1658
G1 X95.733 Y83.005 E482.64866
G1 X95.803 Y82.376 E482.71181
G1 X95.812 Y82.242 E482.72521
G1 X95.832 Y81.69 E482.78033
G1 X58.292 Y44.15 E488.07763
G1 X59.706 Y44.15 E488.21872
G1 X95.849 Y80.293 E493.31889
G1 X95.849 Y78.879 E493.45998
G1 X61.12 Y44.15 E498.36061
G1 X62.535 Y44.15 E498.5018
G1 X95.849 Y77.464 E503.20277
G1 X95.849 Y76.05 E503.34386
G1 X63.949 Y44.15 E507.84529
G1 X65.363 Y44.15 E507.98638
G1 X95.849 Y74.636 E512.28828
G1 X95.849 Y73.222 E512.42937
G1 X66.777 Y44.15 E516.53175
G1 X68.192 Y44.151 E516.67294
G1 X95.849 Y71.808 E520.57564
G1 X95.849 Y70.393 E520.71683
G1 X69.606 Y44.151 E524.41993
G1 X71.021 Y44.151 E524.56112
G1 X95.849 Y68.979 E528.06462
G1 X95.849 Y67.565 E528.20571
G1 X72.435 Y44.151 E531.50967
G1 X73.849 Y44.151 E531.65076
G1 X95.849 Y66.151 E534.7552
G1 X95.849 Y64.737 E534.89629
G1 X75.263 Y44.151 E537.8012
G1 X76.677 Y44.151 E537.94229
G1 X95.849 Y63.322 E540.64759
G1 X95.849 Y61.908 E540.78868
G1 X78.092 Y44.151 E543.29439
G1 X79.506 Y44.151 E543.43548
G1 X95.849 Y60.494 E545.74165
G1 X95.849 Y59.08 E545.88274
G1 X80.92 Y44.151 E547.98938
G1 X81.252 Y44.151 E548.02251
G1 X82.253 Y44.187 E548.12245
G1 X82.376 Y44.195 E548.13475
G0 F7200 X82.38 Y44.196
G1 F675 X95.794 Y57.61 E550.02761
G1 X95.764 Y57.219 E550.06674
G1 X95.747 Y57.057 E550.083
G1 X95.614 Y56.157 E550.17377
G1 X95.588 Y56.019 E550.18779
G1 X95.581 Y55.983 E550.19144
G1 X84.023 Y44.425 E551.8224
G1 X84.357 Y44.486 E551.85628
G1 X84.48 Y44.514 E551.86887
G1 X85.373 Y44.749 E551.96101
G1 X85.537 Y44.798 E551.97808
G1 X85.95 Y44.938 E552.0216
G1 X95.072 Y54.06 E553.30881
G1 X95.037 Y53.96 E553.31938
G1 X94.708 Y53.1 E553.41126
G1 X94.647 Y52.958 E553.42668
G1 X94.265 Y52.142 E553.51658
G1 X94.187 Y51.992 E553.53345
G1 X93.89 Y51.463 E553.59398
G1 X88.524 Y46.098 E554.35111
G1 X89.226 Y46.526 E554.43315
G1 X89.378 Y46.626 E554.45131
G1 X90.092 Y47.137 E554.53891
G1 X90.24 Y47.249 E554.55743
G1 X90.931 Y47.825 E554.6472
G1 X91.044 Y47.926 E554.66232
G1 X91.693 Y48.551 E554.75222
G1 X91.813 Y48.677 E554.76958
G1 X92.416 Y49.347 E554.85952
G1 X92.512 Y49.463 E554.87455
G1 X93.071 Y50.188 E554.9659
G1 X93.165 Y50.319 E554.98198
G1 X93.664 Y51.072 E555.07212
G1 X93.741 Y51.198 E555.08685
G0 F600 X93.741 Y51.198 Z0.74
G0 F7200 X82.399 Y43.996
;TIME_ELAPSED:542.609237
;LAYER:-4
;TYPE:SUPPORT-INTERFACE
G1 F900 X82.264 Y43.986 E555.09136
G1 X81.224 Y43.949 E555.12597
G1 X38.719 Y43.951 E556.53969
G1 X38.111 Y43.967 E556.55992
