;FLAVOR:Marlin
;TIME:19136
;Filament used: 13.0129m
;Layer height: 0.15
;MINX:17.215
;MINY:12.609
;MINZ:0.24
;MAXX:103.07
;MAXY:125.075
;MAXZ:35.915
;Generated with Cura_SteamEngine 4.8.0
M104 S200
M105
M109 S200
M82 ;absolute extrusion mode
; -- START GCODE --
G21                     ;set units to millimetres
G90                     ;set to absolute positioning
M106 S0                 ;set fan speed to zero (turned off)
G28                     ;home all axis
G92 E0                  ;zero the extruded length
G1 Z1 F1000             ;move up slightly
G1 Y60.0 Z0 E9.0 F1000.0;intro line
G1 Y100.0 E21.5 F1000.0 ;continue line
G92 E0                  ;zero the extruded length again
; -- end of START GCODE --
G92 E0
G92 E0
G1 F2700 E-5
;LAYER_COUNT:233
;LAYER:-6
M107
G0 F7200 X21.092 Y17.728 Z0.24
;TYPE:SUPPORT-INTERFACE
G1 F2700 E0
G1 F787.5 X21.193 Y17.615 E0.0121
G1 X21.818 Y16.966 E0.08402
G1 X21.943 Y16.846 E0.09785
G1 X22.614 Y16.243 E0.16987
G1 X22.73 Y16.147 E0.18188
G1 X23.442 Y15.597 E0.2537
G1 X23.601 Y15.484 E0.26927
G1 X24.339 Y14.994 E0.33999
G1 X24.465 Y14.918 E0.35173
G1 X25.259 Y14.472 E0.42443
G1 X25.409 Y14.394 E0.43792
G1 X26.224 Y14.011 E0.5098
G1 X26.367 Y13.951 E0.52218
G1 X27.226 Y13.622 E0.59561
G1 X27.376 Y13.57 E0.60828
G1 X28.226 Y13.315 E0.67912
G1 X28.399 Y13.268 E0.69343
G1 X29.294 Y13.068 E0.76664
G1 X29.424 Y13.045 E0.77717
G1 X30.329 Y12.911 E0.8502
G1 X30.498 Y12.893 E0.86377
G1 X31.387 Y12.827 E0.93493
G1 X31.571 Y12.818 E0.94963
G1 X32.076 Y12.81 E0.98995
G1 X82.019 Y12.811 E4.97662
G1 X83.02 Y12.847 E5.05657
G1 X83.143 Y12.856 E5.06642
G1 X84.06 Y12.958 E5.14007
G1 X84.235 Y12.983 E5.15418
G1 X85.124 Y13.147 E5.22634
G1 X85.247 Y13.175 E5.23641
G1 X86.141 Y13.409 E5.31018
G1 X86.304 Y13.458 E5.32376
G1 X87.146 Y13.744 E5.39475
G1 X87.312 Y13.808 E5.40895
G1 X88.115 Y14.149 E5.47859
G1 X88.304 Y14.237 E5.49523
G1 X89.098 Y14.645 E5.56649
G1 X89.215 Y14.712 E5.57725
G1 X89.994 Y15.186 E5.65004
G1 X90.145 Y15.286 E5.6645
G1 X90.859 Y15.797 E5.73458
G1 X91.007 Y15.91 E5.74945
G1 X91.698 Y16.486 E5.82126
G1 X91.811 Y16.587 E5.83335
G1 X92.46 Y17.212 E5.90528
G1 X92.58 Y17.337 E5.91911
G1 X93.183 Y18.008 E5.99112
G1 X93.279 Y18.124 E6.00314
G1 X93.838 Y18.848 E6.07616
G1 X93.932 Y18.979 E6.08903
G1 X94.432 Y19.733 E6.16124
G1 X94.508 Y19.859 E6.17299
G1 X94.954 Y20.653 E6.24569
G1 X95.032 Y20.803 E6.25918
G1 X95.415 Y21.618 E6.33106
G1 X95.475 Y21.761 E6.34344
G1 X95.804 Y22.62 E6.41687
G1 X95.856 Y22.77 E6.42954
G1 X96.111 Y23.62 E6.50038
G1 X96.158 Y23.793 E6.51469
G1 X96.356 Y24.679 E6.58716
G1 X96.381 Y24.818 E6.59843
G1 X96.514 Y25.717 E6.67098
G1 X96.532 Y25.879 E6.68399
G1 X96.599 Y26.781 E6.75619
G1 X96.608 Y26.965 E6.77089
G1 X96.616 Y27.466 E6.81089
G1 X96.616 Y45.773 E8.27223
G1 X96.658 Y46.441 E8.32566
G1 X96.787 Y47.112 E8.3802
G1 X97 Y47.761 E8.43473
G1 X97.292 Y48.378 E8.48922
G1 X97.662 Y48.957 E8.54407
G1 X98.257 Y49.637 E8.61619
G1 X98.714 Y50.077 E8.66683
G1 X98.834 Y50.202 E8.68066
G1 X99.437 Y50.873 E8.75268
G1 X99.533 Y50.989 E8.7647
G1 X100.083 Y51.701 E8.83651
G1 X100.196 Y51.86 E8.85208
G1 X100.686 Y52.598 E8.9228
G1 X100.762 Y52.724 E8.93454
G1 X101.208 Y53.518 E9.00724
G1 X101.286 Y53.668 E9.02073
G1 X101.669 Y54.483 E9.09262
G1 X101.729 Y54.626 E9.10499
G1 X102.058 Y55.485 E9.17842
G1 X102.11 Y55.635 E9.19109
G1 X102.365 Y56.485 E9.26193
G1 X102.412 Y56.658 E9.27624
G1 X102.61 Y57.544 E9.34871
G1 X102.635 Y57.683 E9.35998
G1 X102.768 Y58.582 E9.43253
G1 X102.786 Y58.744 E9.44554
G1 X102.853 Y59.646 E9.51774
G1 X102.862 Y59.83 E9.53244
G1 X102.87 Y60.331 E9.57244
G1 X102.87 Y110.261 E13.55807
G1 X102.834 Y111.267 E13.63842
G1 X102.824 Y111.402 E13.64923
G1 X102.722 Y112.319 E13.72288
G1 X102.697 Y112.494 E13.73699
G1 X102.535 Y113.372 E13.80826
G1 X102.505 Y113.506 E13.81922
G1 X102.274 Y114.391 E13.89223
G1 X102.222 Y114.563 E13.90658
G1 X101.946 Y115.375 E13.97504
G1 X101.866 Y115.584 E13.9929
G1 X101.531 Y116.374 E14.0614
G1 X101.45 Y116.549 E14.07679
G1 X101.035 Y117.357 E14.1493
G1 X100.968 Y117.474 E14.16006
G1 X100.494 Y118.253 E14.23285
G1 X100.394 Y118.404 E14.24731
G1 X99.883 Y119.118 E14.31739
G1 X99.77 Y119.266 E14.33226
G1 X99.194 Y119.957 E14.40407
G1 X99.093 Y120.07 E14.41616
G1 X98.468 Y120.719 E14.48809
G1 X98.343 Y120.839 E14.50192
G1 X97.673 Y121.441 E14.57382
G1 X97.556 Y121.538 E14.58595
G1 X96.844 Y122.088 E14.65777
G1 X96.685 Y122.201 E14.67334
G1 X95.947 Y122.691 E14.74405
G1 X95.821 Y122.767 E14.7558
G1 X95.027 Y123.213 E14.82849
G1 X94.876 Y123.291 E14.84206
G1 X94.062 Y123.674 E14.91387
G1 X93.919 Y123.734 E14.92625
G1 X93.06 Y124.063 E14.99967
G1 X92.91 Y124.115 E15.01235
G1 X92.06 Y124.37 E15.08319
G1 X91.887 Y124.417 E15.0975
G1 X90.992 Y124.617 E15.1707
G1 X90.862 Y124.64 E15.18124
G1 X89.957 Y124.774 E15.25427
G1 X89.789 Y124.792 E15.26775
G1 X88.899 Y124.858 E15.33899
G1 X88.715 Y124.867 E15.3537
G1 X88.21 Y124.875 E15.39401
G1 X38.267 Y124.874 E19.38068
G1 X37.266 Y124.838 E19.46064
G1 X37.143 Y124.829 E19.47048
G1 X36.226 Y124.727 E19.54413
G1 X36.051 Y124.702 E19.55824
G1 X35.162 Y124.538 E19.6304
G1 X35.039 Y124.51 E19.64047
G1 X34.145 Y124.276 E19.71424
G1 X33.982 Y124.227 E19.72783
G1 X33.14 Y123.941 E19.79881
G1 X32.974 Y123.877 E19.81301
G1 X32.171 Y123.536 E19.88265
G1 X31.982 Y123.448 E19.89929
G1 X31.188 Y123.04 E19.97055
G1 X31.071 Y122.973 E19.98131
G1 X30.292 Y122.499 E20.0541
G1 X30.141 Y122.399 E20.06856
G1 X29.427 Y121.888 E20.13865
G1 X29.279 Y121.775 E20.15351
G1 X28.588 Y121.199 E20.22532
G1 X28.475 Y121.098 E20.23742
G1 X27.826 Y120.473 E20.30934
G1 X27.706 Y120.348 E20.32317
G1 X27.103 Y119.677 E20.39519
G1 X27.006 Y119.559 E20.40738
G1 X26.448 Y118.837 E20.48022
G1 X26.344 Y118.69 E20.49459
G1 X25.851 Y117.947 E20.56577
G1 X25.778 Y117.826 E20.57705
G1 X25.326 Y117.021 E20.65075
G1 X25.254 Y116.882 E20.66324
G1 X24.857 Y116.036 E20.73784
G1 X24.811 Y115.924 E20.7475
G1 X24.482 Y115.065 E20.82093
G1 X24.425 Y114.9 E20.83487
G1 X24.175 Y114.065 E20.90444
G1 X24.128 Y113.892 E20.91875
G1 X23.927 Y112.991 E20.99244
G1 X23.905 Y112.867 E21.00249
G1 X23.77 Y111.953 E21.07625
G1 X23.753 Y111.793 E21.08909
G1 X23.687 Y110.901 E21.16049
G1 X23.678 Y110.72 E21.17495
G1 X23.67 Y110.219 E21.21495
G1 X23.67 Y91.912 E22.67629
G1 X23.628 Y91.244 E22.72972
G1 X23.499 Y90.573 E22.78427
G1 X23.286 Y89.924 E22.83879
G1 X22.994 Y89.307 E22.89328
G1 X22.624 Y88.728 E22.94813
G1 X22.029 Y88.048 E23.02025
G1 X21.572 Y87.608 E23.07089
G1 X21.452 Y87.483 E23.08473
G1 X20.849 Y86.812 E23.15674
G1 X20.752 Y86.694 E23.16893
G1 X20.194 Y85.972 E23.24177
G1 X20.09 Y85.825 E23.25614
G1 X19.597 Y85.082 E23.32732
G1 X19.524 Y84.961 E23.3386
G1 X19.072 Y84.156 E23.4123
G1 X19 Y84.017 E23.42479
G1 X18.617 Y83.201 E23.49675
G1 X18.552 Y83.047 E23.51009
G1 X18.228 Y82.2 E23.58248
G1 X18.171 Y82.035 E23.59642
G1 X17.921 Y81.2 E23.66599
G1 X17.874 Y81.027 E23.6803
G1 X17.673 Y80.126 E23.75399
G1 X17.651 Y80.002 E23.76405
G1 X17.516 Y79.088 E23.8378
G1 X17.499 Y78.928 E23.85064
G1 X17.433 Y78.036 E23.92204
G1 X17.424 Y77.855 E23.9365
G1 X17.416 Y77.354 E23.9765
G1 X17.416 Y27.424 E27.96213
G1 X17.452 Y26.418 E28.04248
G1 X17.462 Y26.283 E28.05329
G1 X17.564 Y25.366 E28.12694
G1 X17.589 Y25.191 E28.14105
G1 X17.751 Y24.313 E28.21232
G1 X17.781 Y24.179 E28.22328
G1 X18.012 Y23.294 E28.29629
G1 X18.064 Y23.122 E28.31064
G1 X18.35 Y22.28 E28.38162
G1 X18.414 Y22.114 E28.39582
G1 X18.755 Y21.311 E28.46546
G1 X18.836 Y21.136 E28.48085
G1 X19.251 Y20.328 E28.55336
G1 X19.318 Y20.211 E28.56412
G1 X19.792 Y19.432 E28.63691
G1 X19.892 Y19.281 E28.65137
G1 X20.403 Y18.567 E28.72146
G1 X20.516 Y18.419 E28.73632
G1 X21.092 Y17.728 E28.80813
G0 F7200 X20.8 Y18.078
G1 F787.5 X20.8 Y86.752 E34.28999
G0 F7200 X22.4 Y88.472
G1 F787.5 X22.4 Y16.435 E40.04029
G0 F7200 X24 Y15.219
G1 F787.5 X24 Y113.318 E47.87098
G0 F7200 X25.6 Y117.508
G1 F787.5 X25.6 Y14.304 E56.10917
G0 F7200 X27.2 Y13.631
G1 F787.5 X27.2 Y119.784 E64.58276
G0 F7200 X28.8 Y121.375
G1 F787.5 X28.8 Y13.178 E73.21951
G0 F7200 X30.4 Y12.903
G1 F787.5 X30.4 Y122.564 E81.97313
G0 F7200 X32 Y123.456
G1 F787.5 X32 Y12.811 E90.80529
G0 F7200 X33.6 Y12.811
G1 F787.5 X33.6 Y124.097 E99.68862
G0 F7200 X35.2 Y124.545
G1 F787.5 X35.2 Y12.811 E108.60771
G0 F7200 X36.8 Y12.811
G1 F787.5 X36.8 Y124.79 E117.54636
G0 F7200 X38.4 Y124.874
G1 F787.5 X38.4 Y12.811 E126.49171
G0 F7200 X40 Y12.811
G1 F787.5 X40 Y124.874 E135.43706
G0 F7200 X41.6 Y124.874
G1 F787.5 X41.6 Y12.811 E144.38242
G0 F7200 X43.2 Y12.811
G1 F787.5 X43.2 Y124.874 E153.32777
G0 F7200 X44.8 Y124.874
G1 F787.5 X44.8 Y12.811 E162.27312
G0 F7200 X46.4 Y12.811
G1 F787.5 X46.4 Y124.874 E171.21848
G0 F7200 X48 Y124.874
G1 F787.5 X48 Y12.811 E180.16383
G0 F7200 X49.6 Y12.811
G1 F787.5 X49.6 Y124.874 E189.10918
G0 F7200 X51.2 Y124.874
G1 F787.5 X51.2 Y12.811 E198.05454
G0 F7200 X52.8 Y12.811
G1 F787.5 X52.8 Y124.874 E206.99989
G0 F7200 X54.4 Y124.874
G1 F787.5 X54.4 Y12.811 E215.94524
G0 F7200 X56 Y12.811
G1 F787.5 X56 Y124.874 E224.8906
G0 F7200 X57.6 Y124.874
G1 F787.5 X57.6 Y12.811 E233.83595
G0 F7200 X59.2 Y12.811
G1 F787.5 X59.2 Y124.874 E242.7813
G0 F7200 X60.8 Y124.874
G1 F787.5 X60.8 Y12.811 E251.72666
G0 F7200 X62.4 Y12.811
G1 F787.5 X62.4 Y124.874 E260.67201
G0 F7200 X64 Y124.874
G1 F787.5 X64 Y12.811 E269.61736
G0 F7200 X65.6 Y12.811
G1 F787.5 X65.6 Y124.874 E278.56272
G0 F7200 X67.2 Y124.874
G1 F787.5 X67.2 Y12.811 E287.50807
G0 F7200 X68.8 Y12.811
G1 F787.5 X68.8 Y124.874 E296.45342
G0 F7200 X70.4 Y124.874
G1 F787.5 X70.4 Y12.811 E305.39878
G0 F7200 X72 Y12.811
G1 F787.5 X72 Y124.874 E314.34413
G0 F7200 X73.6 Y124.874
G1 F787.5 X73.6 Y12.811 E323.28948
G0 F7200 X75.2 Y12.811
G1 F787.5 X75.2 Y124.874 E332.23483
G0 F7200 X76.8 Y124.874
G1 F787.5 X76.8 Y12.811 E341.18019
G0 F7200 X78.4 Y12.811
G1 F787.5 X78.4 Y124.874 E350.12554
G0 F7200 X80 Y124.874
G1 F787.5 X80 Y12.811 E359.07089
G0 F7200 X81.6 Y12.811
G1 F787.5 X81.6 Y124.874 E368.01625
G0 F7200 X83.2 Y124.874
G1 F787.5 X83.2 Y12.863 E376.95745
G0 F7200 X84.8 Y13.088
G1 F787.5 X84.8 Y124.874 E385.88069
G0 F7200 X86.4 Y124.874
G1 F787.5 X86.4 Y13.491 E394.77176
G0 F7200 X88 Y14.101
G1 F787.5 X88 Y124.874 E403.61414
G0 F7200 X89.6 Y124.807
G1 F787.5 X89.6 Y14.947 E412.38364
G0 F7200 X91.2 Y16.071
G1 F787.5 X91.2 Y124.571 E421.04458
G0 F7200 X92.8 Y124.148
G1 F787.5 X92.8 Y17.582 E429.55114
G0 F7200 X94.4 Y19.685
G1 F787.5 X94.4 Y123.515 E437.8393
G0 F7200 X96 Y122.656
G1 F787.5 X96 Y23.25 E445.77432
G0 F7200 X97.117 Y46.386
G0 X97.6 Y48.86
G1 F787.5 X97.6 Y121.502 E451.57292
G0 F7200 X99.2 Y119.95
G1 F787.5 X99.2 Y50.61 E457.10794
G0 F7200 X100.8 Y52.792
G1 F787.5 X100.8 Y117.751 E462.29324
G0 F7200 X102.4 Y113.909
G1 F787.5 X102.4 Y56.614 E466.86678
G0 F7200 X19.2 Y84.383
G1 F787.5 X19.2 Y20.427 E471.97202
G0 F7200 X17.6 Y25.131
G1 F787.5 X17.6 Y79.656 E476.32445
G0 F600 X17.6 Y79.656 Z0.465
G0 F7200 X22.858 Y90.095
G0 X23.109 Y91.067
G0 X25.619 Y117.543
;TIME_ELAPSED:460.318840
;LAYER:-5
;TYPE:SUPPORT
G1 F787.5 X31.012 Y122.936 E476.8952
G1 X30.291 Y122.498 E476.95834
G1 X30.141 Y122.398 E476.97183
G1 X29.426 Y121.886 E477.03764
G1 X29.279 Y121.774 E477.05147
G1 X28.588 Y121.198 E477.11879
G1 X28.475 Y121.097 E477.13013
G1 X27.826 Y120.472 E477.19756
G1 X27.705 Y120.346 E477.21063
G1 X27.103 Y119.676 E477.27804
G1 X27.006 Y119.558 E477.28947
G1 X26.448 Y118.836 E477.35775
G1 X26.343 Y118.689 E477.37127
G1 X25.851 Y117.946 E477.43796
G1 X25.778 Y117.825 E477.44854
G0 F7200 X31.012 Y122.936
G1 F787.5 X31.07 Y122.972 E477.45365
G1 X31.187 Y123.039 E477.46374
G1 X31.981 Y123.447 E477.53054
G1 X32.171 Y123.535 E477.54621
G1 X32.973 Y123.876 E477.61143
G1 X33.139 Y123.94 E477.62474
G1 X33.579 Y124.089 E477.65951
G1 X24.443 Y114.952 E478.62645
G1 X24.424 Y114.899 E478.63066
G1 X24.175 Y114.064 E478.69587
G1 X24.127 Y113.89 E478.70938
G1 X23.936 Y113.031 E478.77523
G1 X35.504 Y124.599 E479.99951
G1 X36.051 Y124.701 E480.04115
G1 X36.225 Y124.725 E480.05429
G1 X37.142 Y124.828 E480.12335
G1 X37.147 Y124.828 E480.12372
G1 X23.724 Y111.405 E481.54432
G1 X23.687 Y110.9 E481.58221
G1 X23.678 Y110.718 E481.59585
G1 X23.669 Y110.218 E481.63328
G1 X23.669 Y109.936 E481.65438
G1 X38.606 Y124.873 E483.23521
G1 X40.02 Y124.873 E483.34102
G1 X23.669 Y108.522 E485.0715
G1 X23.669 Y107.108 E485.17732
G1 X41.435 Y124.873 E487.0575
G1 X42.849 Y124.873 E487.16331
G1 X23.669 Y105.694 E489.19314
G1 X23.669 Y104.279 E489.29903
G1 X44.263 Y124.873 E491.47856
G1 X45.677 Y124.873 E491.58438
G1 X23.669 Y102.865 E493.91355
G1 X23.669 Y101.451 E494.01937
G1 X47.091 Y124.873 E496.49819
G1 X48.506 Y124.873 E496.60408
G1 X23.669 Y100.037 E499.23261
G1 X23.669 Y98.623 E499.33842
G1 X49.92 Y124.873 E502.1166
G1 X51.334 Y124.873 E502.22241
G1 X23.669 Y97.208 E505.15029
G1 X23.669 Y95.794 E505.2561
G1 X52.748 Y124.873 E508.33362
G1 X54.162 Y124.873 E508.43944
G1 X23.669 Y94.38 E511.66661
G1 X23.669 Y92.966 E511.77243
G1 X55.577 Y124.873 E515.1493
G1 X56.991 Y124.873 E515.25511
G1 X23.645 Y91.527 E518.78422
G1 X23.627 Y91.242 E518.80559
G1 X23.499 Y90.572 E518.85664
G1 X23.285 Y89.923 E518.90778
G1 X23.132 Y89.601 E518.93446
G1 X58.405 Y124.873 E522.66746
G1 X59.819 Y124.873 E522.77328
G1 X19.04 Y84.094 E527.08904
G1 X19 Y84.016 E527.0956
G1 X18.617 Y83.2 E527.16306
G1 X18.552 Y83.046 E527.17557
G1 X18.227 Y82.199 E527.24346
G1 X18.171 Y82.034 E527.2565
G1 X18.075 Y81.714 E527.2815
G1 X61.234 Y124.873 E531.84915
G1 X62.648 Y124.873 E531.95497
G1 X17.629 Y79.854 E536.71947
G1 X17.516 Y79.087 E536.77749
G1 X17.499 Y78.927 E536.78953
G1 X17.449 Y78.26 E536.83959
G1 X64.062 Y124.873 E541.77278
G1 X65.476 Y124.873 E541.8786
G1 X17.416 Y76.813 E546.96494
G1 X17.416 Y75.398 E547.07083
G1 X66.89 Y124.873 E552.30687
G1 X68.305 Y124.873 E552.41276
G1 X17.416 Y73.984 E557.7985
G1 X17.416 Y72.57 E557.90432
G1 X69.719 Y124.873 E563.43971
G1 X71.133 Y124.873 E563.54553
G1 X17.416 Y71.156 E569.23056
G1 X17.416 Y69.741 E569.33646
G1 X72.547 Y124.873 E575.17119
G1 X73.961 Y124.873 E575.27701
G1 X17.416 Y68.327 E581.2614
G1 X17.416 Y66.913 E581.36721
G1 X75.376 Y124.873 E587.5013
G1 X76.79 Y124.873 E587.60712
G1 X17.416 Y65.499 E593.89085
G1 X17.416 Y64.085 E593.99667
G1 X78.204 Y124.873 E600.43005
G1 X79.618 Y124.873 E600.53587
G1 X17.416 Y62.67 E607.11895
G1 X17.416 Y61.256 E607.22477
G1 X81.033 Y124.873 E613.95755
G1 X82.447 Y124.873 E614.06337
G1 X17.416 Y59.842 E620.9458
G1 X17.416 Y58.428 E621.05162
G1 X83.861 Y124.873 E628.0837
G1 X85.275 Y124.873 E628.18952
G1 X17.416 Y57.014 E635.37125
G1 X17.416 Y55.599 E635.47714
G1 X86.689 Y124.873 E642.80857
G1 X88.104 Y124.873 E642.91446
G1 X17.416 Y54.185 E650.39559
G1 X17.416 Y52.771 E650.50141
G1 X89.459 Y124.814 E658.12594
G1 X89.789 Y124.79 E658.1507
G1 X89.956 Y124.773 E658.16326
G1 X90.718 Y124.659 E658.22092
G1 X17.416 Y51.357 E665.9787
G1 X17.416 Y49.942 E666.08459
G1 X91.889 Y124.416 E673.96635
G1 X92.06 Y124.369 E673.97963
G1 X92.909 Y124.114 E674.04597
G1 X92.977 Y124.09 E674.05136
G1 X17.416 Y48.528 E682.04827
G1 X17.416 Y47.114 E682.15409
G1 X93.999 Y123.698 E690.25916
G1 X94.062 Y123.672 E690.26426
G1 X94.876 Y123.29 E690.33155
G1 X94.96 Y123.245 E690.33868
G1 X17.416 Y45.7 E698.54545
G1 X17.416 Y44.286 E698.65127
G1 X95.867 Y122.737 E706.95398
G1 X95.947 Y122.69 E706.96093
G1 X96.684 Y122.2 E707.02716
G1 X96.719 Y122.175 E707.03038
G1 X17.416 Y42.871 E715.42331
G1 X17.416 Y41.457 E715.52913
G1 X97.521 Y121.562 E724.00689
G1 X97.555 Y121.536 E724.01009
G1 X97.672 Y121.439 E724.02147
G1 X98.272 Y120.9 E724.08182
G1 X17.416 Y40.043 E732.63912
G1 X17.416 Y38.629 E732.74494
G1 X98.977 Y120.19 E741.37679
G1 X99.093 Y120.068 E741.38939
G1 X99.194 Y119.956 E741.40067
G1 X99.632 Y119.431 E741.45184
G1 X17.416 Y37.215 E750.15301
G1 X17.416 Y35.8 E750.25891
G1 X100.238 Y118.622 E759.02422
G1 X100.394 Y118.402 E759.0444
G1 X100.494 Y118.252 E759.05789
G1 X100.792 Y117.762 E759.10081
G1 X17.416 Y34.386 E767.92475
G1 X17.416 Y32.972 E768.03056
G1 X101.295 Y116.851 E776.90774
G1 X101.45 Y116.548 E776.93321
G1 X101.531 Y116.373 E776.94764
G1 X101.739 Y115.882 E776.98755
