;FLAVOR:Marlin
;TIME:24881
;Filament used: 15.5464m
;Layer height: 0.2
;MINX:10.199
;MINY:25.199
;MINZ:0.24
;MAXX:109.8
;MAXY:114.8
;MAXZ:41.09
;Generated with Cura_SteamEngine 4.8.0
M104 S200
M105
M109 S200
M82 ;absolute extrusion mode
; -- START GCODE --
G21                     ;set units to millimetres
G90                     ;set to absolute positioning
M106 S0                 ;set fan speed to zero (turned off)
G28                     ;home all axis
G92 E0                  ;zero the extruded length
G1 Z1 F1000             ;move up slightly
G1 Y60.0 Z0 E9.0 F1000.0;intro line
G1 Y100.0 E21.5 F1000.0 ;continue line
G92 E0                  ;zero the extruded length again
; -- end of START GCODE --
G92 E0
G92 E0
G1 F2700 E-5
;LAYER_COUNT:200
;LAYER:-6
M107
G0 F7200 X17.323 Y27.584 Z0.24
;TYPE:SUPPORT-INTERFACE
G1 F2700 E0
G1 F675 X17.449 Y27.508 E0.01175
G1 X18.243 Y27.062 E0.08444
G1 X18.393 Y26.984 E0.09794
G1 X19.208 Y26.601 E0.16982
G1 X19.351 Y26.541 E0.1822
G1 X20.21 Y26.212 E0.25562
G1 X20.36 Y26.16 E0.2683
G1 X21.21 Y25.905 E0.33914
G1 X21.383 Y25.858 E0.35345
G1 X22.278 Y25.658 E0.42665
G1 X22.408 Y25.635 E0.43719
G1 X23.313 Y25.501 E0.51022
G1 X23.482 Y25.483 E0.52378
G1 X24.371 Y25.417 E0.59494
G1 X24.555 Y25.408 E0.60965
G1 X25.06 Y25.4 E0.64996
G1 X95.003 Y25.401 E6.23312
G1 X96.004 Y25.437 E6.31307
G1 X96.127 Y25.446 E6.32292
G1 X97.044 Y25.548 E6.39657
G1 X97.219 Y25.573 E6.41068
G1 X98.108 Y25.737 E6.48284
G1 X98.231 Y25.765 E6.49291
G1 X99.125 Y25.999 E6.56668
G1 X99.288 Y26.048 E6.58026
G1 X100.13 Y26.334 E6.65125
G1 X100.296 Y26.398 E6.66545
G1 X101.099 Y26.739 E6.73509
G1 X101.288 Y26.827 E6.75173
G1 X102.082 Y27.235 E6.82299
G1 X102.199 Y27.302 E6.83375
G1 X102.978 Y27.776 E6.90654
G1 X103.129 Y27.876 E6.921
G1 X103.843 Y28.387 E6.99108
G1 X103.991 Y28.5 E7.00595
G1 X104.682 Y29.076 E7.07776
G1 X104.795 Y29.177 E7.08986
G1 X105.444 Y29.802 E7.16178
G1 X105.564 Y29.927 E7.17561
G1 X106.167 Y30.598 E7.24762
G1 X106.263 Y30.714 E7.25964
G1 X106.822 Y31.438 E7.33266
G1 X106.916 Y31.569 E7.34553
G1 X107.416 Y32.323 E7.41775
G1 X107.492 Y32.449 E7.42949
G1 X107.938 Y33.243 E7.50219
G1 X108.016 Y33.393 E7.51568
G1 X108.399 Y34.208 E7.58756
G1 X108.459 Y34.351 E7.59994
G1 X108.788 Y35.21 E7.67337
G1 X108.84 Y35.36 E7.68604
G1 X109.095 Y36.21 E7.75688
G1 X109.142 Y36.383 E7.77119
G1 X109.34 Y37.269 E7.84366
G1 X109.365 Y37.408 E7.85493
G1 X109.498 Y38.307 E7.92748
G1 X109.516 Y38.469 E7.94049
G1 X109.583 Y39.371 E8.01269
G1 X109.592 Y39.555 E8.02739
G1 X109.6 Y40.056 E8.06739
G1 X109.6 Y99.986 E12.85126
G1 X109.564 Y100.992 E12.93162
G1 X109.554 Y101.127 E12.94242
G1 X109.452 Y102.044 E13.01607
G1 X109.427 Y102.219 E13.03018
G1 X109.265 Y103.097 E13.10145
G1 X109.235 Y103.231 E13.11241
G1 X109.004 Y104.116 E13.18542
G1 X108.952 Y104.288 E13.19977
G1 X108.676 Y105.1 E13.26823
G1 X108.596 Y105.309 E13.28609
G1 X108.261 Y106.099 E13.35459
G1 X108.18 Y106.274 E13.36998
G1 X107.765 Y107.082 E13.44249
G1 X107.698 Y107.199 E13.45325
G1 X107.224 Y107.978 E13.52604
G1 X107.124 Y108.129 E13.5405
G1 X106.613 Y108.843 E13.61059
G1 X106.5 Y108.991 E13.62545
G1 X105.924 Y109.682 E13.69726
G1 X105.823 Y109.795 E13.70936
G1 X105.198 Y110.444 E13.78128
G1 X105.073 Y110.564 E13.79511
G1 X104.403 Y111.166 E13.86701
G1 X104.286 Y111.263 E13.87914
G1 X103.574 Y111.813 E13.95096
G1 X103.415 Y111.926 E13.96653
G1 X102.677 Y112.416 E14.03724
G1 X102.551 Y112.492 E14.04899
G1 X101.757 Y112.938 E14.12168
G1 X101.606 Y113.016 E14.13525
G1 X100.792 Y113.399 E14.20706
G1 X100.649 Y113.459 E14.21944
G1 X99.79 Y113.788 E14.29287
G1 X99.64 Y113.84 E14.30554
G1 X98.79 Y114.095 E14.37638
G1 X98.617 Y114.142 E14.39069
G1 X97.722 Y114.342 E14.46389
G1 X97.592 Y114.365 E14.47443
G1 X96.687 Y114.499 E14.54746
G1 X96.519 Y114.517 E14.56095
G1 X95.629 Y114.583 E14.63219
G1 X95.445 Y114.592 E14.64689
G1 X94.94 Y114.6 E14.68721
G1 X24.997 Y114.599 E20.27036
G1 X23.996 Y114.563 E20.35032
G1 X23.873 Y114.554 E20.36016
G1 X22.956 Y114.452 E20.43381
G1 X22.781 Y114.427 E20.44792
G1 X21.892 Y114.263 E20.52008
G1 X21.769 Y114.235 E20.53015
G1 X20.875 Y114.001 E20.60392
G1 X20.712 Y113.952 E20.61751
G1 X19.87 Y113.666 E20.68849
G1 X19.704 Y113.602 E20.70269
G1 X18.901 Y113.261 E20.77233
G1 X18.712 Y113.173 E20.78897
G1 X17.918 Y112.765 E20.86023
G1 X17.801 Y112.698 E20.87099
G1 X17.022 Y112.224 E20.94378
G1 X16.871 Y112.124 E20.95824
G1 X16.157 Y111.613 E21.02833
G1 X16.009 Y111.5 E21.04319
G1 X15.318 Y110.924 E21.115
G1 X15.205 Y110.823 E21.1271
G1 X14.556 Y110.198 E21.19902
G1 X14.436 Y110.073 E21.21285
G1 X13.833 Y109.402 E21.28486
G1 X13.736 Y109.284 E21.29706
G1 X13.178 Y108.562 E21.3699
G1 X13.074 Y108.415 E21.38427
G1 X12.581 Y107.672 E21.45545
G1 X12.508 Y107.551 E21.46673
G1 X12.056 Y106.746 E21.54042
G1 X11.984 Y106.607 E21.55292
G1 X11.587 Y105.761 E21.62752
G1 X11.541 Y105.649 E21.63718
G1 X11.212 Y104.79 E21.71061
G1 X11.155 Y104.625 E21.72454
G1 X10.905 Y103.79 E21.79412
G1 X10.858 Y103.617 E21.80843
G1 X10.657 Y102.716 E21.88212
G1 X10.635 Y102.592 E21.89217
G1 X10.5 Y101.678 E21.96592
G1 X10.483 Y101.518 E21.97877
G1 X10.417 Y100.626 E22.05017
G1 X10.408 Y100.445 E22.06463
G1 X10.4 Y99.944 E22.10463
G1 X10.4 Y40.014 E26.8885
G1 X10.436 Y39.008 E26.96886
G1 X10.446 Y38.873 E26.97966
G1 X10.548 Y37.956 E27.05331
G1 X10.573 Y37.781 E27.06742
G1 X10.735 Y36.903 E27.13869
G1 X10.765 Y36.769 E27.14965
G1 X10.996 Y35.884 E27.22266
G1 X11.048 Y35.712 E27.23701
G1 X11.334 Y34.87 E27.30799
G1 X11.398 Y34.704 E27.32219
G1 X11.739 Y33.901 E27.39183
G1 X11.82 Y33.726 E27.40722
G1 X12.235 Y32.918 E27.47973
G1 X12.302 Y32.801 E27.4905
G1 X12.776 Y32.022 E27.56329
G1 X12.876 Y31.871 E27.57774
G1 X13.387 Y31.157 E27.64783
G1 X13.5 Y31.009 E27.66269
G1 X14.076 Y30.318 E27.7345
G1 X14.177 Y30.205 E27.7466
G1 X14.802 Y29.556 E27.81852
G1 X14.927 Y29.436 E27.83235
G1 X15.598 Y28.833 E27.90437
G1 X15.714 Y28.737 E27.91639
G1 X16.426 Y28.187 E27.9882
G1 X16.585 Y28.074 E28.00377
G1 X17.323 Y27.584 E28.07449
G0 F7200 X17.6 Y27.423
G1 F675 X17.6 Y112.575 E34.87169
G0 F7200 X19.2 Y113.387
G1 F675 X19.2 Y26.604 E41.79908
G0 F7200 X20.8 Y26.028
G1 F675 X20.8 Y113.978 E48.81963
G0 F7200 X22.4 Y114.356
G1 F675 X22.4 Y25.636 E55.90165
G0 F7200 X24 Y25.444
G1 F675 X24 Y114.563 E63.01551
G0 F7200 X25.6 Y114.599
G1 F675 X25.6 Y25.401 E70.13568
G0 F7200 X27.2 Y25.401
G1 F675 X27.2 Y114.599 E77.25585
G0 F7200 X28.8 Y114.599
G1 F675 X28.8 Y25.401 E84.37602
G0 F7200 X30.4 Y25.401
G1 F675 X30.4 Y114.599 E91.49619
G0 F7200 X32 Y114.599
G1 F675 X32 Y25.401 E98.61636
G0 F7200 X33.6 Y25.401
G1 F675 X33.6 Y114.599 E105.73653
G0 F7200 X35.2 Y114.599
G1 F675 X35.2 Y25.401 E112.8567
G0 F7200 X36.8 Y25.401
G1 F675 X36.8 Y114.599 E119.97687
G0 F7200 X38.4 Y114.599
G1 F675 X38.4 Y25.401 E127.09704
G0 F7200 X40 Y25.401
G1 F675 X40 Y114.599 E134.21721
G0 F7200 X41.6 Y114.599
G1 F675 X41.6 Y25.401 E141.33738
G0 F7200 X43.2 Y25.401
G1 F675 X43.2 Y114.599 E148.45755
G0 F7200 X44.8 Y114.599
G1 F675 X44.8 Y25.401 E155.57772
G0 F7200 X46.4 Y25.401
G1 F675 X46.4 Y114.599 E162.69789
G0 F7200 X48 Y114.599
G1 F675 X48 Y25.401 E169.81806
G0 F7200 X49.6 Y25.401
G1 F675 X49.6 Y114.599 E176.93823
G0 F7200 X51.2 Y114.599
G1 F675 X51.2 Y25.401 E184.0584
G0 F7200 X52.8 Y25.401
G1 F675 X52.8 Y114.599 E191.17857
G0 F7200 X54.4 Y114.599
G1 F675 X54.4 Y25.401 E198.29874
G0 F7200 X56 Y25.401
G1 F675 X56 Y114.599 E205.41891
G0 F7200 X57.6 Y114.599
G1 F675 X57.6 Y25.401 E212.53908
G0 F7200 X59.2 Y25.401
G1 F675 X59.2 Y114.599 E219.65925
G0 F7200 X60.8 Y114.599
G1 F675 X60.8 Y25.401 E226.77942
G0 F7200 X62.4 Y25.401
G1 F675 X62.4 Y114.599 E233.89959
G0 F7200 X64 Y114.599
G1 F675 X64 Y25.401 E241.01976
G0 F7200 X65.6 Y25.401
G1 F675 X65.6 Y114.599 E248.13993
G0 F7200 X67.2 Y114.599
G1 F675 X67.2 Y25.401 E255.2601
G0 F7200 X68.8 Y25.401
G1 F675 X68.8 Y114.599 E262.38027
G0 F7200 X70.4 Y114.599
G1 F675 X70.4 Y25.401 E269.50044
G0 F7200 X72 Y25.401
G1 F675 X72 Y114.599 E276.62061
G0 F7200 X73.6 Y114.599
G1 F675 X73.6 Y25.401 E283.74078
G0 F7200 X75.2 Y25.401
G1 F675 X75.2 Y114.599 E290.86095
G0 F7200 X76.8 Y114.599
G1 F675 X76.8 Y25.401 E297.98112
G0 F7200 X78.4 Y25.401
G1 F675 X78.4 Y114.599 E305.10129
G0 F7200 X80 Y114.599
G1 F675 X80 Y25.401 E312.22146
G0 F7200 X81.6 Y25.401
G1 F675 X81.6 Y114.599 E319.34163
G0 F7200 X83.2 Y114.599
G1 F675 X83.2 Y25.401 E326.4618
G0 F7200 X84.8 Y25.401
G1 F675 X84.8 Y114.599 E333.58197
G0 F7200 X86.4 Y114.599
G1 F675 X86.4 Y25.401 E340.70214
G0 F7200 X88 Y25.401
G1 F675 X88 Y114.599 E347.82231
G0 F7200 X89.6 Y114.599
G1 F675 X89.6 Y25.401 E354.94248
G0 F7200 X91.2 Y25.401
G1 F675 X91.2 Y114.599 E362.06265
G0 F7200 X92.8 Y114.599
G1 F675 X92.8 Y25.401 E369.18282
G0 F7200 X94.4 Y25.401
G1 F675 X94.4 Y114.599 E376.30299
G0 F7200 X96 Y114.556
G1 F675 X96 Y25.437 E383.41686
G0 F7200 X97.6 Y25.644
G1 F675 X97.6 Y114.364 E390.49887
G0 F7200 X99.2 Y113.972
G1 F675 X99.2 Y26.022 E397.51942
G0 F7200 X100.8 Y26.613
G1 F675 X100.8 Y113.396 E404.44681
G0 F7200 X102.4 Y112.577
G1 F675 X102.4 Y27.425 E411.24402
G0 F7200 X104 Y28.508
G1 F675 X104 Y111.484 E417.86752
G0 F7200 X105.6 Y110.027
G1 F675 X105.6 Y29.968 E424.25817
G0 F7200 X107.2 Y31.998
G1 F675 X107.2 Y108.015 E430.32618
G0 F7200 X108.8 Y104.736
G1 F675 X108.8 Y35.245 E435.87325
G0 F7200 X16 Y28.516
G1 F675 X16 Y111.492 E442.49675
G0 F7200 X14.4 Y110.032
G1 F675 X14.4 Y29.973 E448.88741
G0 F7200 X12.8 Y31.985
G1 F675 X12.8 Y108.002 E454.95542
G0 F7200 X11.2 Y104.755
G1 F675 X11.2 Y35.264 E460.50249
G0 F600 X11.2 Y35.264 Z0.54
G0 F7200 X12.137 Y106.889
;TIME_ELAPSED:518.918199
;LAYER:-5
;TYPE:SUPPORT
G1 F675 X18.11 Y112.862 E461.34534
G1 X17.918 Y112.763 E461.3669
G1 X17.8 Y112.697 E461.38039
G1 X17.022 Y112.222 E461.47134
G1 X16.87 Y112.123 E461.48944
G1 X16.157 Y111.612 E461.57697
G1 X16.008 Y111.499 E461.59563
G1 X15.318 Y110.923 E461.68531
G1 X15.204 Y110.822 E461.70051
G1 X14.555 Y110.197 E461.79041
G1 X14.436 Y110.072 E461.80764
G1 X13.833 Y109.401 E461.89765
G1 X13.736 Y109.283 E461.91289
G1 X13.178 Y108.561 E462.00394
G1 X13.073 Y108.414 E462.02197
G1 X12.58 Y107.671 E462.11094
G1 X12.508 Y107.55 E462.12499
G0 F7200 X18.11 Y112.862
G1 F675 X18.711 Y113.172 E462.19246
G1 X18.9 Y113.26 E462.21327
G1 X19.704 Y113.6 E462.30037
G1 X19.87 Y113.665 E462.31816
G1 X20.561 Y113.9 E462.39098
G1 X11.098 Y104.436 E463.72638
G1 X10.905 Y103.789 E463.79375
G1 X10.858 Y103.616 E463.81164
G1 X10.656 Y102.715 E463.90378
G1 X10.634 Y102.591 E463.91634
G1 X10.629 Y102.553 E463.92017
G1 X22.439 Y114.363 E465.58668
G1 X22.78 Y114.426 E465.62129
G1 X22.956 Y114.451 E465.63902
G1 X23.872 Y114.553 E465.73099
G1 X23.996 Y114.562 E465.74339
G1 X24.054 Y114.564 E465.74918
G1 X10.44 Y100.95 E467.67027
G1 X10.417 Y100.625 E467.70277
G1 X10.407 Y100.443 E467.72096
G1 X10.399 Y99.943 E467.77086
G1 X10.399 Y99.494 E467.81566
G1 X25.503 Y114.598 E469.947
G1 X26.917 Y114.598 E470.08809
G1 X10.399 Y98.08 E472.41896
G1 X10.399 Y96.666 E472.56005
G1 X28.331 Y114.598 E475.09044
G1 X29.745 Y114.598 E475.23153
G1 X10.399 Y95.252 E477.96146
G1 X10.399 Y93.838 E478.10255
G1 X31.16 Y114.598 E481.03208
G1 X32.574 Y114.598 E481.17317
G1 X10.399 Y92.423 E484.3023
G1 X10.399 Y91.009 E484.44339
G1 X33.988 Y114.598 E487.77206
G1 X35.402 Y114.598 E487.91315
G1 X10.399 Y89.595 E491.44134
G1 X10.399 Y88.181 E491.58243
G1 X36.816 Y114.598 E495.31015
G1 X38.231 Y114.598 E495.45134
G1 X10.399 Y86.766 E499.37874
G1 X10.399 Y85.352 E499.51983
G1 X39.645 Y114.598 E503.64675
G1 X41.059 Y114.598 E503.78784
G1 X10.399 Y83.938 E508.1143
G1 X10.399 Y82.524 E508.25539
G1 X42.473 Y114.598 E512.78138
G1 X43.887 Y114.598 E512.92247
G1 X10.399 Y81.11 E517.64799
G1 X10.399 Y79.695 E517.78918
G1 X45.302 Y114.598 E522.71437
G1 X46.716 Y114.598 E522.85546
G1 X10.399 Y78.281 E527.98018
G1 X10.399 Y76.867 E528.12127
G1 X48.13 Y114.598 E533.44552
G1 X49.544 Y114.598 E533.58661
G1 X10.399 Y75.453 E539.11039
G1 X10.399 Y74.039 E539.25148
G1 X50.959 Y114.598 E544.97486
G1 X52.373 Y114.598 E545.11595
G1 X10.399 Y72.624 E551.03894
G1 X10.399 Y71.21 E551.18003
G1 X53.787 Y114.598 E557.30254
G1 X55.201 Y114.598 E557.44363
G1 X10.399 Y69.796 E563.76568
G1 X10.399 Y68.382 E563.90677
G1 X56.615 Y114.598 E570.42834
G1 X58.03 Y114.598 E570.56953
G1 X10.399 Y66.967 E577.29078
G1 X10.399 Y65.553 E577.43187
G1 X59.444 Y114.598 E584.35265
G1 X60.858 Y114.598 E584.49374
G1 X10.399 Y64.139 E591.61405
G1 X10.399 Y62.725 E591.75514
G1 X62.272 Y114.598 E599.07498
G1 X63.686 Y114.598 E599.21607
G1 X10.399 Y61.311 E606.73544
G1 X10.399 Y59.896 E606.87663
G1 X65.101 Y114.598 E614.59567
G1 X66.515 Y114.598 E614.73676
G1 X10.399 Y58.482 E622.65534
G1 X10.399 Y57.068 E622.79643
G1 X67.929 Y114.598 E630.91453
G1 X69.343 Y114.598 E631.05562
G1 X10.399 Y55.654 E639.37326
G1 X10.399 Y54.24 E639.51435
G1 X70.758 Y114.598 E648.03158
G1 X72.172 Y114.598 E648.17267
G1 X10.399 Y52.825 E656.88951
G1 X10.399 Y51.411 E657.0306
G1 X73.586 Y114.598 E665.94697
G1 X75 Y114.598 E666.08806
G1 X10.399 Y49.997 E675.20395
G1 X10.399 Y48.583 E675.34504
G1 X76.414 Y114.598 E684.66047
G1 X77.829 Y114.598 E684.80166
G1 X10.399 Y47.168 E694.31676
G1 X10.399 Y45.754 E694.45785
G1 X79.243 Y114.598 E704.17249
G1 X80.657 Y114.598 E704.31358
G1 X10.399 Y44.34 E714.22774
G1 X10.399 Y42.926 E714.36883
G1 X82.071 Y114.598 E724.48252
G1 X83.485 Y114.598 E724.62361
G1 X10.399 Y41.512 E734.93683
G1 X10.399 Y40.097 E735.07802
G1 X84.9 Y114.598 E745.59092
G1 X86.314 Y114.598 E745.73201
G1 X10.46 Y38.744 E756.43583
G1 X10.547 Y37.955 E756.51503
G1 X10.573 Y37.78 E756.53269
G1 X10.625 Y37.495 E756.56159
G1 X87.728 Y114.598 E767.44166
G1 X89.142 Y114.598 E767.58275
G1 X10.878 Y36.333 E778.62671
G1 X10.996 Y35.883 E778.67313
G1 X11.047 Y35.711 E778.69103
G1 X11.205 Y35.247 E778.73994
G1 X90.557 Y114.598 E789.9373
G1 X91.971 Y114.598 E790.07839
G1 X11.6 Y34.227 E801.4196
G1 X11.739 Y33.9 E801.45506
G1 X11.819 Y33.724 E801.47435
G1 X12.054 Y33.267 E801.52562
G1 X93.385 Y114.598 E813.0023
G1 X94.799 Y114.598 E813.14339
G1 X12.565 Y32.364 E824.7475
G1 X12.776 Y32.02 E824.78777
G1 X12.875 Y31.87 E824.8057
G1 X13.129 Y31.514 E824.84934
G1 X96.158 Y114.542 E836.56555
G1 X96.518 Y114.515 E836.60158
G1 X96.687 Y114.498 E836.61852
G1 X97.419 Y114.39 E836.69235
G1 X13.744 Y30.714 E848.49987
G1 X14.076 Y30.317 E848.55151
G1 X14.176 Y30.204 E848.56657
G1 X14.407 Y29.963 E848.59988
G1 X98.59 Y114.146 E860.47901
G1 X98.617 Y114.141 E860.48175
G1 X98.789 Y114.094 E860.49954
G1 X99.64 Y113.839 E860.58818
G1 X99.682 Y113.824 E860.59263
G1 X15.12 Y29.262 E872.52524
G1 X15.598 Y28.832 E872.5894
G1 X15.714 Y28.736 E872.60442
G1 X15.88 Y28.608 E872.62534
G1 X100.706 Y113.434 E884.5952
G1 X100.791 Y113.398 E884.60441
G1 X101.605 Y113.015 E884.69417
G1 X101.668 Y112.982 E884.70127
G1 X16.689 Y28.003 E896.69273
G1 X17.323 Y27.583 E896.76861
G1 X17.449 Y27.507 E896.78329
G1 X17.551 Y27.45 E896.79495
G1 X102.576 Y112.475 E908.7929
G1 X102.676 Y112.415 E908.80453
G1 X103.415 Y111.925 E908.89301
G1 X103.429 Y111.914 E908.89478
G1 X18.464 Y26.949 E920.88426
G1 X19.207 Y26.599 E920.96621
G1 X19.35 Y26.54 E920.98165
G1 X19.436 Y26.508 E920.9908
G1 X104.232 Y111.303 E932.95637
G1 X104.286 Y111.262 E932.96313
G1 X104.402 Y111.165 E932.97822
G1 X104.984 Y110.641 E933.05636
G1 X20.47 Y26.126 E944.98227
G1 X21.21 Y25.904 E945.05936
G1 X21.382 Y25.857 E945.07715
G1 X21.573 Y25.815 E945.09666
G1 X105.689 Y109.932 E956.96641
G1 X105.822 Y109.793 E956.9856
G1 X105.923 Y109.681 E957.00065
G1 X106.346 Y109.175 E957.06646
G1 X22.754 Y25.583 E968.86219
G1 X23.312 Y25.5 E968.91848
G1 X23.482 Y25.482 E968.93554
G1 X24.027 Y25.441 E968.99008
G1 X106.953 Y108.367 E980.69183
G1 X107.123 Y108.127 E980.72118
G1 X107.223 Y107.977 E980.73916
G1 X107.509 Y107.509 E980.79389
G1 X25.399 Y25.399 E992.3805
G1 X26.814 Y25.399 E992.52169
G1 X108.012 Y106.598 E1003.97967
G1 X108.178 Y106.273 E1004.01609
G1 X108.26 Y106.099 E1004.03528
G1 X108.459 Y105.631 E1004.08602
G1 X28.228 Y25.399 E1015.40756
G1 X29.642 Y25.399 E1015.54865
G1 X108.844 Y104.602 E1026.72497
G1 X108.951 Y104.288 E1026.75807
