;FLAVOR:Marlin
;TIME:9890
;Filament used: 5.28117m
;Layer height: 0.15
;MINX:12.199
;MINY:27.199
;MINZ:0.24
;MAXX:107.8
;MAXY:112.8
;MAXZ:9.365
;Generated with Cura_SteamEngine 4.8.0
M104 S210
M105
M109 S210
M82 ;absolute extrusion mode
; -- START GCODE --
G21                     ;set units to millimetres
G90                     ;set to absolute positioning
M106 S0                 ;set fan speed to zero (turned off)
G28                     ;home all axis
G92 E0                  ;zero the extruded length
G1 Z1 F1000             ;move up slightly
G1 Y60.0 Z0 E9.0 F1000.0;intro line
G1 Y100.0 E21.5 F1000.0 ;continue line
G92 E0                  ;zero the extruded length again
; -- end of START GCODE --
G92 E0
G92 E0
G1 F2700 E-5
;LAYER_COUNT:56
;LAYER:-6
M107
G0 F7200 X19.323 Y29.584 Z0.24
;TYPE:SUPPORT-INTERFACE
G1 F2700 E0
G1 F787.5 X19.449 Y29.508 E0.01175
G1 X20.243 Y29.062 E0.08444
G1 X20.393 Y28.984 E0.09794
G1 X21.208 Y28.601 E0.16982
G1 X21.351 Y28.541 E0.1822
G1 X22.21 Y28.212 E0.25562
G1 X22.36 Y28.16 E0.2683
G1 X23.21 Y27.905 E0.33914
G1 X23.383 Y27.858 E0.35345
G1 X24.278 Y27.658 E0.42665
G1 X24.408 Y27.635 E0.43719
G1 X25.313 Y27.501 E0.51022
G1 X25.482 Y27.483 E0.52378
G1 X26.371 Y27.417 E0.59494
G1 X26.555 Y27.408 E0.60965
G1 X27.06 Y27.4 E0.64996
G1 X93.003 Y27.401 E5.91382
G1 X94.004 Y27.437 E5.99378
G1 X94.127 Y27.446 E6.00362
G1 X95.044 Y27.548 E6.07727
G1 X95.219 Y27.573 E6.09138
G1 X96.108 Y27.737 E6.16354
G1 X96.231 Y27.765 E6.17361
G1 X97.125 Y27.999 E6.24738
G1 X97.288 Y28.048 E6.26097
G1 X98.13 Y28.334 E6.33195
G1 X98.296 Y28.398 E6.34615
G1 X99.099 Y28.739 E6.41579
G1 X99.288 Y28.827 E6.43243
G1 X100.082 Y29.235 E6.50369
G1 X100.199 Y29.302 E6.51445
G1 X100.978 Y29.776 E6.58724
G1 X101.129 Y29.876 E6.6017
G1 X101.843 Y30.387 E6.67179
G1 X101.991 Y30.5 E6.68665
G1 X102.682 Y31.076 E6.75846
G1 X102.795 Y31.177 E6.77056
G1 X103.444 Y31.802 E6.84248
G1 X103.564 Y31.927 E6.85631
G1 X104.167 Y32.598 E6.92833
G1 X104.263 Y32.714 E6.94034
G1 X104.822 Y33.438 E7.01336
G1 X104.916 Y33.569 E7.02623
G1 X105.416 Y34.323 E7.09845
G1 X105.492 Y34.449 E7.11019
G1 X105.938 Y35.243 E7.18289
G1 X106.016 Y35.393 E7.19638
G1 X106.399 Y36.208 E7.26827
G1 X106.459 Y36.351 E7.28065
G1 X106.788 Y37.21 E7.35407
G1 X106.84 Y37.36 E7.36675
G1 X107.095 Y38.21 E7.43758
G1 X107.142 Y38.383 E7.45189
G1 X107.34 Y39.269 E7.52436
G1 X107.365 Y39.408 E7.53564
G1 X107.498 Y40.307 E7.60818
G1 X107.516 Y40.469 E7.62119
G1 X107.583 Y41.371 E7.69339
G1 X107.592 Y41.555 E7.7081
G1 X107.6 Y42.056 E7.74809
G1 X107.6 Y97.986 E12.21267
G1 X107.564 Y98.992 E12.29302
G1 X107.554 Y99.127 E12.30383
G1 X107.452 Y100.044 E12.37748
G1 X107.427 Y100.219 E12.39159
G1 X107.265 Y101.097 E12.46286
G1 X107.235 Y101.231 E12.47382
G1 X107.004 Y102.116 E12.54683
G1 X106.952 Y102.288 E12.56117
G1 X106.676 Y103.1 E12.62963
G1 X106.596 Y103.309 E12.6475
G1 X106.261 Y104.099 E12.71599
G1 X106.18 Y104.274 E12.73139
G1 X105.765 Y105.082 E12.80389
G1 X105.698 Y105.199 E12.81466
G1 X105.224 Y105.978 E12.88745
G1 X105.124 Y106.129 E12.9019
G1 X104.613 Y106.843 E12.97199
G1 X104.5 Y106.991 E12.98685
G1 X103.924 Y107.682 E13.05866
G1 X103.823 Y107.795 E13.07076
G1 X103.198 Y108.444 E13.14268
G1 X103.073 Y108.564 E13.15652
G1 X102.403 Y109.166 E13.22842
G1 X102.286 Y109.263 E13.24055
G1 X101.574 Y109.813 E13.31237
G1 X101.415 Y109.926 E13.32794
G1 X100.677 Y110.416 E13.39865
G1 X100.551 Y110.492 E13.41039
G1 X99.757 Y110.938 E13.48309
G1 X99.606 Y111.016 E13.49666
G1 X98.792 Y111.399 E13.56847
G1 X98.649 Y111.459 E13.58085
G1 X97.79 Y111.788 E13.65427
G1 X97.64 Y111.84 E13.66694
G1 X96.79 Y112.095 E13.73778
G1 X96.617 Y112.142 E13.75209
G1 X95.722 Y112.342 E13.8253
G1 X95.592 Y112.365 E13.83584
G1 X94.687 Y112.499 E13.90886
G1 X94.519 Y112.517 E13.92235
G1 X93.629 Y112.583 E13.99359
G1 X93.445 Y112.592 E14.0083
G1 X92.94 Y112.6 E14.04861
G1 X26.997 Y112.599 E19.31247
G1 X25.996 Y112.563 E19.39242
G1 X25.873 Y112.554 E19.40227
G1 X24.956 Y112.452 E19.47592
G1 X24.781 Y112.427 E19.49003
G1 X23.892 Y112.263 E19.56219
G1 X23.769 Y112.235 E19.57226
G1 X22.875 Y112.001 E19.64603
G1 X22.712 Y111.952 E19.65961
G1 X21.87 Y111.666 E19.7306
G1 X21.704 Y111.602 E19.7448
G1 X20.901 Y111.261 E19.81444
G1 X20.712 Y111.173 E19.83108
G1 X19.918 Y110.765 E19.90234
G1 X19.801 Y110.698 E19.9131
G1 X19.022 Y110.224 E19.98589
G1 X18.871 Y110.124 E20.00035
G1 X18.157 Y109.613 E20.07044
G1 X18.009 Y109.5 E20.0853
G1 X17.318 Y108.924 E20.15711
G1 X17.205 Y108.823 E20.16921
G1 X16.556 Y108.198 E20.24113
G1 X16.436 Y108.073 E20.25496
G1 X15.833 Y107.402 E20.32697
G1 X15.736 Y107.284 E20.33917
G1 X15.178 Y106.562 E20.41201
G1 X15.074 Y106.415 E20.42638
G1 X14.581 Y105.672 E20.49756
G1 X14.508 Y105.551 E20.50884
G1 X14.056 Y104.746 E20.58253
G1 X13.984 Y104.607 E20.59503
G1 X13.587 Y103.761 E20.66963
G1 X13.541 Y103.649 E20.67929
G1 X13.212 Y102.79 E20.75272
G1 X13.155 Y102.625 E20.76665
G1 X12.905 Y101.79 E20.83623
G1 X12.858 Y101.617 E20.85054
G1 X12.657 Y100.716 E20.92423
G1 X12.635 Y100.592 E20.93428
G1 X12.5 Y99.678 E21.00803
G1 X12.483 Y99.518 E21.02088
G1 X12.417 Y98.626 E21.09227
G1 X12.408 Y98.445 E21.10674
G1 X12.4 Y97.944 E21.14674
G1 X12.4 Y42.014 E25.61131
G1 X12.436 Y41.008 E25.69167
G1 X12.446 Y40.873 E25.70247
G1 X12.548 Y39.956 E25.77612
G1 X12.573 Y39.781 E25.79023
G1 X12.735 Y38.903 E25.8615
G1 X12.765 Y38.769 E25.87246
G1 X12.996 Y37.884 E25.94548
G1 X13.048 Y37.712 E25.95982
G1 X13.334 Y36.87 E26.0308
G1 X13.398 Y36.704 E26.045
G1 X13.739 Y35.901 E26.11464
G1 X13.82 Y35.726 E26.13004
G1 X14.235 Y34.918 E26.20254
G1 X14.302 Y34.801 E26.21331
G1 X14.776 Y34.022 E26.2861
G1 X14.876 Y33.871 E26.30055
G1 X15.387 Y33.157 E26.37064
G1 X15.5 Y33.009 E26.3855
G1 X16.076 Y32.318 E26.45731
G1 X16.177 Y32.205 E26.46941
G1 X16.802 Y31.556 E26.54133
G1 X16.927 Y31.436 E26.55517
G1 X17.598 Y30.833 E26.62718
G1 X17.714 Y30.737 E26.6392
G1 X18.426 Y30.187 E26.71101
G1 X18.585 Y30.074 E26.72659
G1 X19.323 Y29.584 E26.7973
G0 F7200 X19.2 Y29.665
G1 F787.5 X19.2 Y110.332 E33.23649
G0 F7200 X20.8 Y111.213
G1 F787.5 X20.8 Y28.792 E39.81569
G0 F7200 X22.4 Y28.148
G1 F787.5 X22.4 Y111.846 E46.49682
G0 F7200 X24 Y112.282
G1 F787.5 X24 Y27.72 E53.24693
G0 F7200 X25.6 Y27.474
G1 F787.5 X25.6 Y112.523 E60.03591
G0 F7200 X27.2 Y112.599
G1 F787.5 X27.2 Y27.401 E66.83678
G0 F7200 X28.8 Y27.401
G1 F787.5 X28.8 Y112.599 E73.63765
G0 F7200 X30.4 Y112.599
G1 F787.5 X30.4 Y27.401 E80.43853
G0 F7200 X32 Y27.401
G1 F787.5 X32 Y112.599 E87.2394
G0 F7200 X33.6 Y112.599
G1 F787.5 X33.6 Y27.401 E94.04027
G0 F7200 X35.2 Y27.401
G1 F787.5 X35.2 Y112.599 E100.84114
G0 F7200 X36.8 Y112.599
G1 F787.5 X36.8 Y27.401 E107.64202
G0 F7200 X38.4 Y27.401
G1 F787.5 X38.4 Y112.599 E114.44289
G0 F7200 X40 Y112.599
G1 F787.5 X40 Y27.401 E121.24376
G0 F7200 X41.6 Y27.401
G1 F787.5 X41.6 Y112.599 E128.04464
G0 F7200 X43.2 Y112.599
G1 F787.5 X43.2 Y27.401 E134.84551
G0 F7200 X44.8 Y27.401
G1 F787.5 X44.8 Y112.599 E141.64638
G0 F7200 X46.4 Y112.599
G1 F787.5 X46.4 Y27.401 E148.44725
G0 F7200 X48 Y27.401
G1 F787.5 X48 Y112.599 E155.24813
G0 F7200 X49.6 Y112.599
G1 F787.5 X49.6 Y27.401 E162.049
G0 F7200 X51.2 Y27.401
G1 F787.5 X51.2 Y112.599 E168.84987
G0 F7200 X52.8 Y112.599
G1 F787.5 X52.8 Y27.401 E175.65074
G0 F7200 X54.4 Y27.401
G1 F787.5 X54.4 Y112.599 E182.45162
G0 F7200 X56 Y112.599
G1 F787.5 X56 Y27.401 E189.25249
G0 F7200 X57.6 Y27.401
G1 F787.5 X57.6 Y112.599 E196.05336
G0 F7200 X59.2 Y112.599
G1 F787.5 X59.2 Y27.401 E202.85424
G0 F7200 X60.8 Y27.401
G1 F787.5 X60.8 Y112.599 E209.65511
G0 F7200 X62.4 Y112.599
G1 F787.5 X62.4 Y27.401 E216.45598
G0 F7200 X64 Y27.401
G1 F787.5 X64 Y112.599 E223.25685
G0 F7200 X65.6 Y112.599
G1 F787.5 X65.6 Y27.401 E230.05773
G0 F7200 X67.2 Y27.401
G1 F787.5 X67.2 Y112.599 E236.8586
G0 F7200 X68.8 Y112.599
G1 F787.5 X68.8 Y27.401 E243.65947
G0 F7200 X70.4 Y27.401
G1 F787.5 X70.4 Y112.599 E250.46035
G0 F7200 X72 Y112.599
G1 F787.5 X72 Y27.401 E257.26122
G0 F7200 X73.6 Y27.401
G1 F787.5 X73.6 Y112.599 E264.06209
G0 F7200 X75.2 Y112.599
G1 F787.5 X75.2 Y27.401 E270.86296
G0 F7200 X76.8 Y27.401
G1 F787.5 X76.8 Y112.599 E277.66384
G0 F7200 X78.4 Y112.599
G1 F787.5 X78.4 Y27.401 E284.46471
G0 F7200 X80 Y27.401
G1 F787.5 X80 Y112.599 E291.26558
G0 F7200 X81.6 Y112.599
G1 F787.5 X81.6 Y27.401 E298.06645
G0 F7200 X83.2 Y27.401
G1 F787.5 X83.2 Y112.599 E304.86733
G0 F7200 X84.8 Y112.599
G1 F787.5 X84.8 Y27.401 E311.6682
G0 F7200 X86.4 Y27.401
G1 F787.5 X86.4 Y112.599 E318.46907
G0 F7200 X88 Y112.599
G1 F787.5 X88 Y27.401 E325.26995
G0 F7200 X89.6 Y27.401
G1 F787.5 X89.6 Y112.599 E332.07082
G0 F7200 X91.2 Y112.599
G1 F787.5 X91.2 Y27.401 E338.87169
G0 F7200 X92.8 Y27.401
G1 F787.5 X92.8 Y112.599 E345.67256
G0 F7200 X94.4 Y112.526
G1 F787.5 X94.4 Y27.477 E352.46154
G0 F7200 X96 Y27.718
G1 F787.5 X96 Y112.28 E359.21165
G0 F7200 X97.6 Y111.852
G1 F787.5 X97.6 Y28.154 E365.89278
G0 F7200 X99.2 Y28.787
G1 F787.5 X99.2 Y111.208 E372.47198
G0 F7200 X100.8 Y110.335
G1 F787.5 X100.8 Y29.668 E378.91117
G0 F7200 X102.4 Y30.841
G1 F787.5 X102.4 Y109.169 E385.16365
G0 F7200 X104 Y107.591
G1 F787.5 X104 Y32.413 E391.16469
G0 F7200 X105.6 Y34.642
G1 F787.5 X105.6 Y105.361 E396.80978
G0 F7200 X107.2 Y101.366
G1 F787.5 X107.2 Y38.643 E401.8166
G0 F7200 X17.6 Y30.831
G1 F787.5 X17.6 Y109.159 E408.06908
G0 F7200 X16 Y107.587
G1 F787.5 X16 Y32.409 E414.07012
G0 F7200 X14.4 Y34.639
G1 F787.5 X14.4 Y105.358 E419.71521
G0 F7200 X12.8 Y101.357
G1 F787.5 X12.8 Y38.634 E424.72203
G0 F600 X12.8 Y38.634 Z0.465
G0 F7200 X13.983 Y104.606
;TIME_ELAPSED:411.381007
;LAYER:-5
;TYPE:SUPPORT
G1 F787.5 X14.055 Y104.745 E424.73375
G1 X14.507 Y105.55 E424.80284
G1 X14.58 Y105.671 E424.81341
G1 X15.074 Y106.413 E424.88012
G1 X15.178 Y106.561 E424.89366
G1 X15.735 Y107.283 E424.9619
G1 X15.832 Y107.401 E424.97333
G1 X16.435 Y108.072 E425.04084
G1 X16.556 Y108.197 E425.05386
G1 X17.205 Y108.822 E425.12129
G1 X17.317 Y108.923 E425.13257
G1 X18.009 Y109.499 E425.19995
G1 X18.157 Y109.612 E425.21389
G1 X18.871 Y110.123 E425.27959
G1 X19.021 Y110.223 E425.29309
G1 X19.801 Y110.696 E425.36135
G1 X19.917 Y110.764 E425.37141
G1 X20.61 Y111.119 E425.42968
G1 X13.883 Y104.393 E426.14157
G1 X13.587 Y103.76 E426.19386
G1 X13.541 Y103.647 E426.20299
G1 X13.211 Y102.789 E426.27179
G1 X13.155 Y102.623 E426.2849
G1 X12.994 Y102.089 E426.32664
G1 X22.914 Y112.009 E427.3765
G1 X23.769 Y112.234 E427.44266
G1 X23.892 Y112.262 E427.4521
G1 X24.736 Y112.417 E427.51632
G1 X12.587 Y100.268 E428.80209
G1 X12.499 Y99.677 E428.8468
G1 X12.482 Y99.517 E428.85884
G1 X12.421 Y98.688 E428.92105
G1 X26.306 Y112.573 E430.39054
G1 X26.997 Y112.598 E430.44229
G1 X27.745 Y112.598 E430.49827
G1 X12.399 Y97.252 E432.12238
G1 X12.399 Y95.838 E432.2282
G1 X29.159 Y112.598 E434.00196
G1 X30.573 Y112.598 E434.10778
G1 X12.399 Y94.424 E436.03119
G1 X12.399 Y93.009 E436.13708
G1 X31.988 Y112.598 E438.21024
G1 X33.402 Y112.598 E438.31606
G1 X12.399 Y91.595 E440.53887
G1 X12.399 Y90.181 E440.64469
G1 X34.816 Y112.598 E443.01715
G1 X36.23 Y112.598 E443.12297
G1 X12.399 Y88.767 E445.64508
G1 X12.399 Y87.353 E445.75089
G1 X37.644 Y112.598 E448.42265
G1 X39.059 Y112.598 E448.52854
G1 X12.399 Y85.938 E451.35005
G1 X12.399 Y84.524 E451.45587
G1 X40.473 Y112.598 E454.42703
G1 X41.887 Y112.598 E454.53285
G1 X12.399 Y83.11 E457.65365
G1 X12.399 Y81.696 E457.75947
G1 X43.301 Y112.598 E461.02992
G1 X44.716 Y112.598 E461.13582
G1 X12.399 Y80.282 E464.55597
G1 X12.399 Y78.867 E464.66186
G1 X46.13 Y112.598 E468.23172
G1 X47.544 Y112.598 E468.33754
G1 X12.399 Y77.453 E472.05704
G1 X12.399 Y76.039 E472.16286
G1 X48.958 Y112.598 E476.03201
G1 X50.372 Y112.598 E476.13783
G1 X12.399 Y74.625 E480.15663
G1 X12.399 Y73.211 E480.26245
G1 X51.787 Y112.598 E484.43095
G1 X53.201 Y112.598 E484.53676
G1 X12.399 Y71.796 E488.85497
G1 X12.399 Y70.382 E488.96078
G1 X54.615 Y112.598 E493.42863
G1 X56.029 Y112.598 E493.53445
G1 X12.399 Y68.968 E498.15195
G1 X12.399 Y67.554 E498.25777
G1 X57.443 Y112.598 E503.02491
G1 X58.858 Y112.598 E503.1308
G1 X12.399 Y66.139 E508.0477
G1 X12.399 Y64.725 E508.15352
G1 X60.272 Y112.598 E513.22007
G1 X61.686 Y112.598 E513.32589
G1 X12.399 Y63.311 E518.54208
G1 X12.399 Y61.897 E518.6479
G1 X63.1 Y112.598 E524.01374
G1 X64.515 Y112.598 E524.11964
G1 X12.399 Y60.483 E529.63518
G1 X12.399 Y59.068 E529.74107
G1 X65.929 Y112.598 E535.40632
G1 X67.343 Y112.598 E535.51214
G1 X12.399 Y57.654 E541.32703
G1 X12.399 Y56.24 E541.43285
G1 X68.757 Y112.598 E547.39739
G1 X70.171 Y112.598 E547.50321
G1 X12.399 Y54.826 E553.6174
G1 X12.399 Y53.412 E553.72321
G1 X71.586 Y112.598 E559.9871
G1 X73 Y112.598 E560.09292
G1 X12.399 Y51.997 E566.50651
G1 X12.399 Y50.583 E566.61233
G1 X74.414 Y112.598 E573.17557
G1 X75.828 Y112.598 E573.28139
G1 X12.399 Y49.169 E579.99428
G1 X12.399 Y47.755 E580.10009
G1 X77.242 Y112.598 E586.96263
G1 X78.657 Y112.598 E587.06852
G1 X12.399 Y46.34 E594.08081
G1 X12.399 Y44.926 E594.18663
G1 X80.071 Y112.598 E601.34856
G1 X81.485 Y112.598 E601.45438
G1 X12.399 Y43.512 E608.76597
G1 X12.399 Y42.098 E608.87178
G1 X82.899 Y112.598 E616.33302
G1 X84.313 Y112.598 E616.43884
G1 X12.459 Y40.744 E624.04337
G1 X12.547 Y39.955 E624.10278
G1 X12.573 Y39.779 E624.11609
G1 X12.625 Y39.495 E624.1377
G1 X85.728 Y112.598 E631.87442
G1 X87.142 Y112.598 E631.98023
G1 X12.877 Y38.333 E639.83993
G1 X12.995 Y37.883 E639.87474
G1 X13.047 Y37.711 E639.88819
G1 X13.205 Y37.246 E639.92494
G1 X88.556 Y112.598 E647.89962
G1 X89.97 Y112.598 E648.00544
G1 X13.599 Y36.227 E656.08802
G1 X13.739 Y35.899 E656.11471
G1 X13.82 Y35.725 E656.12907
G1 X14.054 Y35.267 E656.16756
G1 X91.385 Y112.598 E664.35174
G1 X92.799 Y112.598 E664.45756
G1 X14.566 Y34.365 E672.7372
G1 X14.776 Y34.021 E672.76736
G1 X14.876 Y33.87 E672.78091
G1 X15.129 Y33.514 E672.8136
G1 X94.157 Y112.542 E681.17738
G1 X94.518 Y112.516 E681.20446
G1 X94.687 Y112.497 E681.21719
G1 X95.419 Y112.389 E681.27256
G1 X15.744 Y32.715 E689.70476
G1 X16.076 Y32.316 E689.74361
G1 X16.177 Y32.204 E689.75489
G1 X16.407 Y31.964 E689.77977
G1 X96.59 Y112.146 E698.26573
G1 X96.616 Y112.14 E698.26773
G1 X96.789 Y112.094 E698.28112
G1 X97.64 Y111.838 E698.34763
G1 X97.681 Y111.823 E698.35089
G1 X17.119 Y31.261 E706.87702
G1 X17.597 Y30.831 E706.92514
G1 X17.714 Y30.736 E706.93642
G1 X17.88 Y30.608 E706.9521
G1 X98.705 Y111.433 E715.50606
G1 X98.792 Y111.398 E715.51308
G1 X99.605 Y111.015 E715.58033
G1 X99.668 Y110.982 E715.58566
G1 X18.69 Y30.003 E724.15586
G1 X19.323 Y29.583 E724.21271
G1 X19.448 Y29.506 E724.2237
G1 X19.55 Y29.45 E724.23241
G1 X100.576 Y110.475 E732.80759
G1 X100.677 Y110.415 E732.81638
G1 X101.414 Y109.925 E732.88261
G1 X101.429 Y109.914 E732.884
G1 X20.464 Y28.949 E741.45278
G1 X21.208 Y28.6 E741.51428
G1 X21.35 Y28.54 E741.52581
G1 X21.436 Y28.507 E741.53271
G1 X102.232 Y109.303 E750.0836
G1 X102.285 Y109.262 E750.08861
G1 X102.402 Y109.165 E750.09999
G1 X102.984 Y108.641 E750.15859
G1 X22.47 Y28.127 E758.67964
G1 X23.21 Y27.903 E758.7375
G1 X23.382 Y27.857 E758.75082
G1 X23.572 Y27.815 E758.76538
G1 X103.69 Y107.932 E767.24447
G1 X103.823 Y107.794 E767.25881
G1 X103.924 Y107.681 E767.27015
G1 X104.346 Y107.174 E767.31952
G1 X24.755 Y27.583 E775.74288
G1 X25.313 Y27.5 E775.7851
G1 X25.482 Y27.481 E775.79782
G1 X26.027 Y27.441 E775.83872
G1 X104.953 Y106.367 E784.1917
G1 X105.124 Y106.128 E784.21369
G1 X105.223 Y105.977 E784.22721
G1 X105.508 Y105.508 E784.26828
G1 X27.4 Y27.4 E792.53469
G1 X28.814 Y27.4 E792.64051
G1 X106.012 Y104.598 E800.81061
G1 X106.179 Y104.274 E800.83789
G1 X106.259 Y104.098 E800.85236
G1 X106.459 Y103.63 E800.89044
G1 X30.228 Y27.4 E808.95815
G1 X31.643 Y27.4 E809.06404
G1 X106.845 Y102.602 E817.02291
G1 X106.951 Y102.288 E817.04771
G1 X107.003 Y102.116 E817.06115
G1 X107.162 Y101.505 E817.1084
G1 X33.057 Y27.4 E824.95116
G1 X34.471 Y27.4 E825.05698
G1 X107.405 Y100.334 E832.77581
G1 X107.425 Y100.218 E832.78462
G1 X107.451 Y100.043 E832.79786
G1 X107.553 Y99.127 E832.86683
G1 X107.558 Y99.072 E832.87097
G1 X35.885 Y27.4 E840.45629
G1 X37.299 Y27.4 E840.56211
G1 X107.599 Y97.7 E848.00217
